!!!!SEGMENT: pl-wtm--r-1432--002_stefani-jozef--quartetto-adagio.krn
!!!cenid: 18xx:2450
!!!COM: Stefani, Józef
!!!COM-rismID: pe30024097
!!!CDT: 1800/04/16-1876/03/19
!!!CNT: Polish
!!!OPR: Quartetto
!!!OTL: Adagio
!!!OMV: 002
!!!PDT: 1825
!!!AGN: Secular; String quartet
!!!SMS-siglum: PL-Wtm
!!!SMS-shelfmark: R 1432
!!!SMS-shelfwork: 001-002 M
!!!SMS-variant:
!!!SMS-altvar:
!!!NIFC-rismSourceID: 1001116254
!!!NIFC-islandoraID: pl-wtm:25598
!!!URL-pdf-islandora: https://repozytorium.nifc.pl/islandora/object/pl-wtm%3A25598/datastream/PDF/view
!!!URL-scan: https://polish.musicsources.pl/pl/lokalizacje/galeria/rekopisy/6250 @EN{Scan on Polish Music Sources Website} @PL{Skany w portalu Dziedzictwo Muzyki Polskiej w otwartym dostępie}
!!!ONB-nifc: UWAGA: części Kwartetu: 1. Allegro moderato, 2. Adagio, 3. Menuetto, 4. Finale
!!!AIN: 1 alto 1 cello 2 violn
!!!key:
**kern	**dynam	**kern	**dynam	**kern	**dynam	**kern	**dynam
*part4	*part4	*part3	*part3	*part2	*part2	*part1	*part1
*staff4	*	*staff3	*	*staff2	*	*staff1	*
*Icello	*	*Ialto	*	*Ivioln	*	*Ivioln	*
*I"Violon-cello	*	*I"Alto	*	*I"V. 2.	*	*I"V. I.	*
*clefF4	*	*clefC3	*	*clefG2	*	*clefG2	*
*k[f#]	*	*k[f#]	*	*k[f#]	*	*k[f#]	*
*G:	*	*G:	*	*G:	*	*G:	*
*M6/8	*	*M6/8	*	*M6/8	*	*M6/8	*
*2\right	*	*2\right	*	*2\right	*	*2\right	*
!	!	!	!	!	!	!LO:TX:t=P:problem=all\right&colon; global	!LO:DY:b:t=p.:rj
8r	.	8r	.	8r	.	8d/	p
=1	=1	=1	=1	=1	=1	=1	=1
!	!	!	!LO:DY:b:rj	!	!	!	!
(<8GG'</L	.	(>8d\L	p	2.r	.	(<8b/L	.
8GG'</	.	8e\	.	.	.	8cc/	.
8GG'</J	.	8d\J	.	.	.	8b/J	.
8GG'</L	.	8.c#X\L	.	.	.	8a/L	.
8GG'</	.	.	.	.	.	8e/	.
.	.	16cn\L	.	.	.	.	.
8GG'</J)	.	16B\	.	.	.	8f#/J	.
.	.	16A\JJ	.	.	.	.	.
=2	=2	=2	=2	=2	=2	=2	=2
(<16GG/LL	.	8B/L)	.	4r	.	8g/L)	.
16BB/J)	.	.	.	.	.	.	.
8D'</	.	8B'</	.	.	.	8g'</	.
!	!LO:HP:a	!LO:TUP:b:problem=klamra łukowa	!	!	!	!LO:TUP:b:problem=klamra łukowa	!LO:HP:b
(>8F#X|</J	>	24c/L	.	8r	.	24a/L	>
.	.	24d/	.	.	.	24b/	.
.	.	24c/JJ	.	.	.	24a/JJ	]
!LO:TX:t=P:problem=mixed beam	!	!	!	!	!	!	!
8G\L)	]	8B/	.	4r	.	8g/	.
8GG'</J	.	8r	.	.	.	8r	.
!	!	!	!	!	!LO:DY:b	!	!
8r	.	8r	.	(<8b/	mf	8r	.
=3	=3	=3	=3	=3	=3	=3	=3
!LO:TX:t=P:problem=mixed beam	!	!	!LO:DY:b:rj	!	!	!	!
8FF#'</L	.	8dL 8c'>\	mf	8a/L)	.	2.r	.
8F#'>\J	.	8dJ 8c'>\	.	8d'</J	.	.	.
!	!	!	!	!LO:TUP:b:problem=klamra łukowa	!LO:HP:b	!	!
8r	.	8r	.	24cc/LL	>	.	.
.	.	.	.	24b/	.	.	.
.	.	.	.	(<24a/JJ	]	.	.
!LO:TX:t=P:problem=mixed beam	!	!	!	!	!	!	!
8GG'</L	.	8dL 8B'>\	.	8b/L)	.	.	.
8G'>\J	.	8dJ 8B'>\	.	8d'</J	.	.	.
!	!	!	!	!LO:TUP:b:problem=klamra łukowa	!LO:HP:b	!	!
8r	.	8r	.	24dd/LL	>	.	.
.	.	.	.	24cc/	.	.	.
.	.	.	.	24b/JJ	]	.	.
=4	=4	=4	=4	=4	=4	=4	=4
!	!	!	!	!	!	!LO:TX:t=P:problem=korekty w takcie	!
8DD'</L	.	8d\L	.	8a/L	.	8f#'>\	.
(<8FF#/	.	8d\	.	8a'</J	.	(>8a\L	.
!	!	!	!	!LO:TUP:b:problem=klamra łukowa	!	!	!
8GG/J	.	8d\J	.	24b/LL	.	8g\J)	.
.	.	.	.	24cc/	.	.	.
.	.	.	.	24b/JJ	.	.	.
8D/)	.	8d\	.	8a/	.	8f#\	.
!	!	!	!	!	!	!	!LO:HP:t=dim
8r	.	(>8d\L	.	8r	.	8dd\L	>
8r	.	16e\L	.	8r	.	(>16cc#X\L	.
.	.	16f#\JJ)	.	.	.	16ccn\JJ	.
=5	=5	=5	=5	=5	=5	=5	=5
*tremolo	*	*	*	*	*	*	*
!LO:TX:a:t=P:problem=łuk pod nutą z tremolo	!LO:DY:a:rj	!	!LO:DY:a:rj	!	!	!	!
(<8GG/L	p	(>16g\LL	p	2.r	.	8b/L)	.
.	.	16d\	.	.	.	.	.
8GG/	.	16e\	.	.	.	8cc/	.
.	.	16e-X\J	.	.	.	.	.
8GG/	.	8d\J)	.	.	.	8b/J	.
8GG/	.	8c#X/L	.	.	.	(<16b/LL	.
.	.	.	.	.	.	16a/J	.
8GG/	.	(<16cn/L	.	.	.	8e/	.
.	.	16B/	.	.	.	.	.
8GG/J)	.	16A/	.	.	.	8f#/J	.
.	.	16d/JJ)	.	.	.	.	.
*Xtremolo	*	*	*	*	*	*	*
!!LO:LB:g=original
=6	=6	=6	=6	=6	=6	=6	=6
(<16GG/LL	.	8B/L	.	4r	.	8g/L)	.
16BB/J	.	.	.	.	.	.	.
8D/)	.	8B/J	.	.	.	8g'</J	.
!	!	!LO:TUP:b:problem=klamra łukowa	!	!	!	!LO:TUP:b:problem=klamra łukowa	!
(<8F#X/J	.	24c/LL	.	8r	.	24a/LL	.
.	.	24d/	.	.	.	24b/	.
.	.	24c/JJ	.	.	.	24a/JJ	.
!LO:TX:t=P:problem=mixed beam	!	!	!	!	!	!	!
8G\L)	.	8B/	.	4r	.	8g/	.
8GG/J	.	8r	.	.	.	8r	.
8r	.	8r	.	(<8b/	.	8r	.
=7	=7	=7	=7	=7	=7	=7	=7
!LO:TX:t=P:problem=mixed beam	!	!	!	!	!	!	!LO:DY:b:rj
8A\L	.	8f#L 8A\	.	8a/L)	.	8d'</L	mf
8AA/J	.	8f#J 8A\	.	8a'</J	.	8d'</J	.
!	!	!	!	!LO:TUP:a:problem=klamra łukowa	!	!	!
8r	.	8r	.	24ff#\LL	.	8r	.
.	.	.	.	24ee\	.	.	.
.	.	.	.	24dd\JJ	.	.	.
!LO:TX:t=P:problem=mixed beam	!	!	!	!	!	!	!
8A\L	.	8gL 8A\	.	8cc#X'>\L	.	8e'</L	.
8AA/J	.	8gJ 8A\	.	8cc#'>\J	.	8e'</J	.
!	!	!	!	!LO:TUP:a:problem=klamra łukowa	!	!	!
8r	.	8r	.	24gg\LL	.	8ryy	.
.	.	.	.	24ff#\	.	.	.
.	.	.	.	24ee\JJ	.	.	.
=8	=8	=8	=8	=8	=8	=8	=8
8D/	.	8f#L 8A'>\	.	8dd\L	.	8d/	.
8r	.	(>8f# 8A\	.	8dd\	.	(>8dd\L	.
!	!	!	!	!LO:TUP:a:problem=klamra łukowa	!LO:HP:b	!	!
(<8AA^>/	.	8gJ 8A\	.	24ee\L	>	8cc#X\J)	.
.	.	.	.	24ff#\	.	.	.
.	.	.	.	24ee\JJ	]	.	.
8D/L)	.	8f# 8A\)	.	8dd\	.	8dd\	.
8DD'</J	.	8r	.	8r	.	8r	.
!	!	!	!	!	!	!LO:TUP:a:problem=klamra łukowa	!
8r	.	8r	.	8r	.	24dd\LL	.
.	.	.	.	.	.	24ee-X\	.
.	.	.	.	.	.	24dd\JJ	.
=9	=9	=9	=9	=9	=9	=9	=9
!	!	!	!	!	!	!	!LO:DY:b:rj
8D'<^>/L	.	8r	.	8ff#XL 8a'>^<\	.	8cccL 8dd'>^<\	f
8DD'<^>/J	.	8r	.	8ff#J 8a'>^<\	.	8cccJ 8dd'>^<\	.
!	!	!LO:TUP:a:problem=klamra łukowa	!	!	!	!	!
8r	.	24dd\LL	.	8r	.	8r	.
.	.	24ee-X\	.	.	.	.	.
.	.	24dd\JJ	.	.	.	.	.
4r	.	8dd\L	.	8r	.	8r	.
.	.	8d'>\J	.	8r	.	8r	.
!	!	!	!	!	!	!LO:TUP:a:problem=klamra łukowa	!
8r	.	8r	.	8r	.	24dd\LL	.
.	.	.	.	.	.	24ee-X\	.
.	.	.	.	.	.	24dd\JJ	.
=10	=10	=10	=10	=10	=10	=10	=10
8D'<^>/L	.	8r	.	8ggL 8b-X'>^<\	.	8bb-XL 8dd'>^<\	.
8DD'<^>/J	.	8r	.	8ggJ 8b-'>^<\	.	8bb-J 8dd'>^<\	.
!	!	!LO:TUP:a:problem=klamra łukowa	!	!	!	!	!
8r	.	24dd\LL	.	8r	.	8r	.
.	.	24ee-X\	.	.	.	.	.
.	.	24dd\JJ	.	.	.	.	.
4r	.	8dd\L	.	4r	.	8r	.
.	.	8d'>\J	.	.	.	8r	.
!	!	!	!	!	!	!LO:TUP:a:problem=klamra łukowa	!
8r	.	8r	.	8r	.	24gg\LL	.
.	.	.	.	.	.	24aa\	.
.	.	.	.	.	.	24gg\JJ	.
=11	=11	=11	=11	=11	=11	=11	=11
!LO:TX:t=P:problem=mixed beam	!	!	!	!	!	!	!LO:HP:b:t=cres
8E-X'>\L	.	8r	.	8ggL 8g'>\	.	8ccc#X'>\L	<
8EE-X'>/J	.	8r	.	8ggJ 8g'>\	.	8ccc#'>\J	.
*	*	*Xtuplet	*	*	*	*	*
!	!	!LO:TUP:a:problem=klamra łukowa	!LO:HP:b:t=cresc	!	!	!	!
8r	.	24g\LL	<	8r	.	8r	.
.	.	24a\	.	.	.	.	.
.	.	24g\JJ	.	.	.	.	.
!LO:TX:t=P:problem=mixed beam	!	!	!	!	!	!	!
8E-X'>\L	.	8g\	.	8ggL 8g'>\	.	8ccc#\L	.
8EE-'>/J	.	8r	.	8ggJ 8g'>\	.	8ccc#\J	.
!	!	!LO:TUP:a:problem=klamra łukowa	!	!	!	!	!
8r	.	24g\LL	.	8r	.	8r	.
.	.	24a\	.	.	.	.	.
.	.	24g\JJ	.	.	.	.	.
!!LO:LB:g=original
=12	=12	=12	=12	=12	=12	=12	=12
8D/L	.	8f#\L	.	8aaL 8a\	.	8ddd'>\L	.
!	!	!	!	!	!	!	!LO:DY:b
8D/J	.	8f#\J	.	8aaJ 8a\	.	8ddd'>\J	f
*	*	*tuplet	*	*	*	*	*
!	!	!LO:TUP:a:problem=klamra łukowa	!	!	!	!	!
(<8E-X^>/	.	24g\LL	.	(>8gg^<\	.	(>8ccc#X^<\	.
.	.	24a\	.	.	.	.	.
.	.	24g\JJ	.	.	.	.	.
8D/L)	.	8f#\L	.	8aa\L)	.	8ddd\L)	.
8D'</J	.	8f#\J	.	8aa'>\J	.	8ddd'>\J	.
!	!	!LO:TUP:a:problem=klamra łukowa	!	!	!	!	!
(<8E-^>/	.	24g\LL	.	(>8gg^<\	.	8ccc#^<\	.
.	.	24a\	.	.	.	.	.
.	.	24g\JJ	.	.	.	.	.
=13	=13	=13	=13	=13	=13	=13	=13
8D/L)	.	8f#\L	.	8aa\L)	.	8ddd\L	.
8D'</J	.	8f#\J	.	8aa\J	.	8ddd\J	.
!	!	!LO:TUP:a:problem=klamra łukowa	!	!	!	!	!
(<8E-X/	.	24g\LL	.	(>8gg^<\	.	(>8ccc#X^<\	.
.	.	24a\	.	.	.	.	.
.	.	24g\JJ	.	.	.	.	.
8D/L)	.	8f#\L	.	8aa\L)	.	8ddd\L)	.
8D'</J	.	8f#\J	.	8aa'>\J	.	8ddd'>\J	.
!	!	!LO:TUP:a:problem=klamra łukowa	!	!	!	!	!
8E-X/	.	24g\LL	.	8gg'>^<\	.	(>8ccc#^<\	.
.	.	24a\	.	.	.	.	.
.	.	24g\JJ	.	.	.	.	.
=14	=14	=14	=14	=14	=14	=14	=14
*	*	*	*	*	*	*	*^
!	!	!	!	!	!	!	!LO:HP:b	!
8D/	.	8f#\L	.	8aa\	.	8ddd\L)	<	.
8r	.	8ee\	.	8r	.	(>8eee\	.	.
!	!	!	!	!	!	!	!LO:HP:b	!LO:HP:b:t=dim
8r	.	8ee-X\J	.	8r	.	8eee-X\J	[ >	>
4r	.	8dd\L	.	8f#/L	.	8ddd\L	.	.
.	.	8een\	.	8g/	.	8ccc#X\	]	.
8r	.	8ff#\J	.	8a/J	.	8cccn\J)	.	.
*	*	*	*	*	*	*	*v	*v
=15	=15	=15	=15	=15	=15	=15	=15
*tremolo	*	*	*	*	*	*	*
!LO:TX:a:t=P:problem=łuk nad nutą z tremolo	!LO:DY:b:rj	!	!	!	!	!	!LO:DY:b:rj
(>8G\L	p	8gg\	.	16g\LL	.	(>8bb\L	p
.	.	.	.	(>16dd\	.	.	.
8G\	.	8ryy	.	16ee\	.	8ccc\	.
.	.	.	.	16ee-X\J	.	.	.
8G\	.	8r	.	8dd\J)	.	8bb\J	.
8G\	.	4r	.	8cc#X/L	.	16bb\LL	.
.	.	.	.	.	.	16aa\J	.
8G\	.	.	.	(<16ccn/L	.	8ee\	.
.	.	.	.	16b/	.	.	.
8G\J)	.	8r	.	16a/	.	8ff#\J	.
.	.	.	.	16dd/JJ)	.	.	.
*Xtremolo	*	*	*	*	*	*	*
=16	=16	=16	=16	=16	=16	=16	=16
(>16G\LL	.	2.r	.	8b'>\L	.	8gg\L)	.
16B\J)	.	.	.	.	.	.	.
8d'>\	.	.	.	8b'>\J	.	8gg'>\J	.
!	!	!	!	!LO:TUP:a:problem=klamra łukowa	!	!LO:TUP:a:problem=klamra łukowa	!
(>8f#X\J	.	.	.	24cc\LL	.	24aa\LL	.
.	.	.	.	24dd\	.	24bb\	.
.	.	.	.	24cc\JJ	.	24aa\JJ	.
8g\L)	.	.	.	8b\	.	8gg\	.
8G'>\J	.	.	.	8r	.	8r	.
!	!LO:HP:b	!	!	!	!	!	!LO:HP:b
8r	<	.	.	8r	.	(>8bb\	<
=17	=17	=17	=17	=17	=17	=17	=17
8C/L	.	8a\L	.	8eeL 8a'>\	.	8aa\L)	.
8C/J	[[	8a\J	.	8eeJ 8a'>\	.	8aa'>\J	.
!	!	!	!	!	!	!LO:TUP:a:problem=klamra łukowa	!
8r	.	8r	.	8r	.	24eee\LL	.
.	.	.	.	.	.	24ddd#X\	[
!	!	!	!	!	!	!	!LO:DY:b
.	.	.	.	.	.	24eee\JJ	ff
!	!LO:DY:b:rj	!	!	!	!	!	!
8C#X'</L	ff	8g'>\L	.	8eeL 8b-X\	.	8ggg'>^<\L	.
8C#'</J	.	8g'>\J	.	8eeJ 8b-\	.	8ggg'>^<\J	.
*	*	*	*	*	*	*Xtuplet	*
!	!	!	!	!	!	!LO:TUP:a:problem=klamra łukowa	!
8r	.	8r	.	8r	.	(>24ggg\LL	.
.	.	.	.	.	.	24fff#\	.
.	.	.	.	.	.	24ggg\JJ	.
!!LO:PB:g=original
=18	=18	=18	=18	=18	=18	=18	=18
!	!LO:DY:a:rj	!	!	!	!	!	!LO:DY:b
8D'</L	p	8g\L	.	8bn\L	.	8ddd\L)	p
8D'</J	.	8g\J	.	8dd\J	.	8bb|>\J	.
8r	.	8r	.	8r	.	8r	.
4r	.	4r	.	4r	.	8r	.
.	.	.	.	.	.	8r	.
*	*	*	*	*	*	*tuplet	*
!	!	!	!	!	!	!LO:TUP:a	!
8r	.	8r	.	8r	.	(>24ddd\LL	.
.	.	.	.	.	.	24eee\	.
.	.	.	.	.	.	24ddd\JJ	.
=19	=19	=19	=19	=19	=19	=19	=19
8D'</L	.	8aL 8d\	.	8ff#X\L	.	8aa\L)	.
8D'</J	.	8aJ 8d\	.	8ff#\J	.	8aa'>\J	.
8r	.	8r	.	8r	.	8r	.
4r	.	4r	.	4r	.	8r	.
.	.	.	.	.	.	8r	.
!	!	!	!	!	!	!LO:TUP:a	!
8r	.	8r	.	8r	.	(>24ddd\LL	.
.	.	.	.	.	.	24eee\	.
.	.	.	.	.	.	24ddd\JJ	.
=20	=20	=20	=20	=20	=20	=20	=20
!LO:TX:t=P:problem=mixed beam	!	!	!	!	!	!	!
8G\L	.	8B'</L	.	8g'</L	.	8gg\L)	.
8GG/J	.	(<8d/	.	(<8b/	.	8gg'>\J	.
8r	.	8c/J	.	8a/J	.	8r	.
(<8GG/L	.	8B/L	.	8g/L	.	4r	.
8AA/	.	8c/	.	8f#/	.	.	.
8BB/J	.	8d/J)	.	8g/J)	.	8r	.
=21	=21	=21	=21	=21	=21	=21	=21
4C/)	.	(>2.e\	.	2.a/ [<2.g/	.	8r	.
.	.	.	.	.	.	(>8a/L	.
8BB/	.	.	.	.	.	8b/J	.
(<8AA/L	.	.	.	.	.	8cc\L	.
8BB/	.	.	.	.	.	8dd\	.
8C/J	.	.	.	.	.	8ee\J)	.
=22	=22	=22	=22	=22	=22	=22	=22
*	*	*	*	*^	*	*	*
8D\L)	.	4.d\)	.	4.a/	4.g\]	.	[>4.a/	.
(>8C#X\	.	.	.	.	.	.	.	.
8D\J	.	.	.	.	.	.	.	.
!LO:TX:t=P:problem=mixed beam	!	!	!	!	!	!	!	!
8D\L)	.	4.f#\	.	4.a/	4.f#\	.	8a/L]	.
(<8DD/	.	.	.	.	.	.	8dd/	.
8DD#X/J	.	.	.	.	.	.	(<8cc/J	.
*	*	*	*	*v	*v	*	*	*
=23	=23	=23	=23	=23	=23	=23	=23
8EE\L)	.	4.g\	.	(<4.g/	.	(<4.b/)	.
(>8E\	.	.	.	.	.	.	.
8Dn\J	.	.	.	.	.	.	.
4C#X/)	.	4g\	.	4a/)	.	8a/L)	.
.	.	.	.	.	.	(<8ee/	.
8Cn/	.	8a\	.	8dd\	.	8ff#/J	.
!!LO:LB:g=original
=24	=24	=24	=24	=24	=24	=24	=24
!	!	!	!	!	!	!LO:TX:a:t=P:problem=brak zakończenia łuku	!
8BB'</L	.	4.g\	.	8dd'>\L	.	4.gg\)	.
!	!	!	!	!	!LO:HP:b	!	!
(<8D/	.	.	.	(>8dd\	<	.	.
8C/J	.	.	.	8ee\J	.	.	.
!	!	!	!	!	!LO:HP:b	!	!
4BB/)	.	4.d\	.	8ffn\L	[ >	4.gg#X\	.
.	.	.	.	8ee\	.	.	.
8BB-X/	.	.	.	[>8dd\J)	]	.	.
=25	=25	=25	=25	=25	=25	=25	=25
!LO:TX:t=P:problem=mixed beam	!	!	!	!	!	!	!
8AA|</L	.	4.e\	.	8dd\]	.	[>2.aa\	.
(>8A\	.	.	.	4cc#X\	.	.	.
8Gn\J	.	.	.	.	.	.	.
!LO:TX:t=P:problem=mixed beam	!	!	!	!	!	!	!
8F#\L)	.	8f#\	.	8dd'>\L	.	.	.
(<8FF#/	.	8r	.	(>8dd\	.	.	.
8FFn/J	.	8r	.	8dd#X\J	.	.	.
=26	=26	=26	=26	=26	=26	=26	=26
!LO:TX:t=P:problem=mixed beam	!	!	!	!	!	!	!
8EE/L)	.	(>4.b\	.	4.ee\)	.	8aa\]	.
(>8E\	.	.	.	.	.	(>4gg#X\	.
8Dn\J	.	.	.	.	.	.	.
!	!	!	!	!LO:TX:a:t=P:problem=niejednoznaczny zapis łuku	!	!	!
8C#X\L)	.	8a\)	.	(>16ee\LL	.	8aa\L)	.
.	.	.	.	16ee#X\JJ	.	.	.
!	!	!	!	!	!	!	!LO:HP:b
8D|>\	.	8r	.	4ff#\)	.	(>16aa\L	<
.	.	.	.	.	.	16aa#X\	.
(>16D\L	.	8a\	.	.	.	16bb\	.
16D#X\JJ)	.	.	.	.	.	16bb#X\JJ	[
=27	=27	=27	=27	=27	=27	=27	=27
!	!	!	!	!	!	!	!LO:HP:b
8E/L	.	[>4.a\	.	[>4.een\	.	(>4.ccc#X\)	>
(<8AA/	.	.	.	.	.	.	.
8C#X/J	.	.	.	.	.	.	.
8E/L)	.	8a\]	.	4ee\]	.	8bb\L)	]
(<8BB/	.	4g#X\	.	.	.	(>8eee|>\	.
8E/J	.	.	.	8gg#X\	.	8ddd\J	.
=28	=28	=28	=28	=28	=28	=28	=28
8F#'>\L)	.	2.f#\	.	[>2.aa\	.	(>4.ccc#X\)	.
(>8F#\	.	.	.	.	.	.	.
!	!	!	!	!	!	!	!LO:HP:b
8E\J)	.	.	.	.	.	.	<
8D\	.	.	.	.	.	4bb\)	.
4D#X\	.	.	.	.	.	.	.
.	.	.	.	.	.	8bb#X\	[
=29	=29	=29	=29	=29	=29	=29	=29
8E/L	.	2.e\	.	4aa\]	.	8ccc#X\L	.
8C#X/	.	.	.	.	.	8ee\	.
8AA/J	.	.	.	8cc#X\	.	[>8aa\J	.
8EE/L	.	.	.	4.dd\	.	8aa\L]	.
8BB/	.	.	.	.	.	16gg#X\L	.
.	.	.	.	.	.	16ff#\J	.
8E/J	.	.	.	.	.	8gg#\J	.
!!LO:LB:g=original
=30	=30	=30	=30	=30	=30	=30	=30
8AA'</L	.	8e\	.	8cc#X\	.	8aa\	.
(<8C#X/	.	8r	.	8r	.	8r	.
8E/J	.	8r	.	8r	.	8r	.
!	!	!	!	!	!LO:DY:a	!LO:TUP:a	!
8AA/L)	.	16e\LL	.	16gLL 16A/	mf	24ggn'>\LL	.
.	.	.	.	.	.	24ff#'>\	.
.	.	16e\	.	16g 16A/	.	.	.
.	.	.	.	.	.	24ee'>\JJ	.
*	*	*	*	*	*	*Xtuplet	*
8AA'</	.	16e\	.	16g 16A/	.	24ee\LL	.
.	.	.	.	.	.	24dd\	.
.	.	16e\	.	16g 16A/	.	.	.
.	.	.	.	.	.	24cc#X\JJ	.
8AA'</J	.	16e\	.	16g 16A/	.	24cc#\LL	.
!	!	!	!	!	!	!	!LO:HP:b
.	.	.	.	.	.	24b\	<
.	.	16e\JJ	.	16gJJ 16A/	.	.	.
.	.	.	.	.	.	24cc#\JJ	.
=31	=31	=31	=31	=31	=31	=31	=31
*	*	*tremolo	*	*tremolo	*	*	*
8AA'</L	.	16d\LL	.	16f#LL 16A/	.	24dd\LL	.
.	.	.	.	.	.	24ff#\	.
.	.	16d\	.	16f# 16A/	.	.	.
.	.	.	.	.	.	24ee\JJ	.
(<8D/	.	16d\	.	16f# 16A/	.	24dd\LL	.
.	.	.	.	.	.	24aa\	.
.	.	16d\	.	16f# 16A/	.	.	.
.	.	.	.	.	.	24gg\JJ	.
8F#/J	.	16d\	.	16f# 16A/	.	24ff#\LL	[
.	.	.	.	.	.	24ee\	.
.	.	16d\JJ	.	16f#JJ 16A/	.	.	.
.	.	.	.	.	.	24dd\JJ	.
!	!	!	!	!	!	!	!LO:DY:b
8AA/L)	.	16d\LL	.	16fnLL 16A/	.	24ffn\LL	sf
.	.	.	.	.	.	24ee\	.
.	.	16d\	.	16f 16A/	.	.	.
!	!	!	!	!	!	!	!LO:HP:b
.	.	.	.	.	.	24dd\JJ	>
8AA'</	.	16d\	.	16f 16A/	.	24dd\LL	.
.	.	.	.	.	.	24cc#X\	.
.	.	16d\	.	16f 16A/	.	.	.
.	.	.	.	.	.	24b\JJ	.
8AA'</J	.	16d\	.	16f 16A/	.	24b/LL	.
.	.	.	.	.	.	24a/	.
.	.	16d\JJ	.	16fJJ 16A/	.	.	.
.	.	.	.	.	.	24g#X/JJ	]
=32	=32	=32	=32	=32	=32	=32	=32
8AA'</L	.	16c#X\LL	.	16eLL 16A/	.	24a/LL	.
.	.	.	.	.	.	24cc#X/	.
.	.	16c#\	.	16e 16A/	.	.	.
.	.	.	.	.	.	24b/JJ	.
(<8C#X/	.	16c#\	.	16e 16A/	.	24a/LL	.
.	.	.	.	.	.	24ee/	.
.	.	16c#\	.	16e 16A/	.	.	.
.	.	.	.	.	.	24dd/JJ	.
8E/J	.	16c#\	.	16e 16A/	.	24cc#/LL	.
.	.	.	.	.	.	24b/	.
.	.	16c#\JJ	.	16eJJ 16A/	.	.	.
.	.	.	.	.	.	24a/JJ	.
.	.	.	.	.	.	(>8qa/	.
8AA/L)	.	16e\LL	.	16gLL 16A/	.	24gg\LL)	.
.	.	.	.	.	.	24ff#\	.
.	.	16e\	.	16g 16A/	.	.	.
!	!	!	!	!	!	!	!LO:HP:b
.	.	.	.	.	.	24ee\JJ	<
8AA'</	.	16e\	.	16g 16A/	.	24ee\LL	.
.	.	.	.	.	.	24dd\	.
.	.	16e\	.	16g 16A/	.	.	.
.	.	.	.	.	.	24cc#X\JJ	.
8AA'</J	.	16e\	.	16g 16A/	.	24cc#\LL	.
.	.	.	.	.	.	24b\	.
.	.	16e\JJ	.	16gJJ 16A/	.	.	.
.	.	.	.	.	.	24cc#JJ 24a\	.
=33	=33	=33	=33	=33	=33	=33	=33
8AA'</L	.	16d\LL	.	16f#LL 16A/	.	24dd\LL	.
.	.	.	.	.	.	24ff#\	[
.	.	16d\	.	16f# 16A/	.	.	.
.	.	.	.	.	.	24ee\JJ	.
(<8D/	.	16d\	.	16f# 16A/	.	24dd\LL	.
.	.	.	.	.	.	24aa\	.
.	.	16d\	.	16f# 16A/	.	.	.
.	.	.	.	.	.	24gg\JJ	.
8F#/J	.	16d\	.	16f# 16A/	.	24ff#\LL	.
!	!	!	!	!	!	!	!LO:DY:b
.	.	.	.	.	.	24ee\	sf
.	.	16d\JJ	.	16f#JJ 16A/	.	.	.
.	.	.	.	.	.	24dd\JJ	.
!	!	!	!	!	!	!	!LO:HP:b
8AA/L)	.	16d\LL	.	16fnLL 16A/	.	24ffn\LL	>
.	.	.	.	.	.	24ee\	.
.	.	16d\	.	16f 16A/	.	.	.
.	.	.	.	.	.	24dd\JJ	.
8AA'</	.	16d\	.	16f 16A/	.	24dd\LL	.
.	.	.	.	.	.	24cc#X\	.
.	.	16d\	.	16f 16A/	.	.	.
.	.	.	.	.	.	24b\JJ	.
8AA'</J	.	16d\	.	16f 16A/	.	24b\LL	.
.	.	.	.	.	.	24a\	.
.	.	16d\JJ	.	16fJJ 16A/	.	.	.
.	.	.	.	.	.	24g#X\JJ	]
!!LO:PB:g=original
=34	=34	=34	=34	=34	=34	=34	=34
*	*	*	*	*Xtremolo	*	*	*
8AA'</L	.	16c#X\LL	.	16eLL 16A/	.	24a/LL	.
.	.	.	.	.	.	24cc#X/	.
.	.	16c#\	.	16e 16A/	.	.	.
.	.	.	.	.	.	24b/JJ	.
(<8C#X/	.	16c#\	.	16e 16A/	.	24a\LL	.
.	.	.	.	.	.	24ee\	.
.	.	16c#\	.	16eJJ 16A/	.	.	.
.	.	.	.	.	.	24dd\JJ	.
8E/J	.	16c#\	.	16gLL 16A/	.	24cc#\LL	.
.	.	.	.	.	.	24b\	.
.	.	16c#\JJ	.	16gJJ 16A/	.	.	.
.	.	.	.	.	.	24a\JJ	.
*	*	*	*	*tremolo	*	*	*
!	!	!	!	!	!	!	!LO:DY:b:rj
8AA/L)	.	16d\LL	.	16fnLL 16A/	.	24ffn\LL	sf
!	!	!	!	!	!	!	!LO:HP:b
.	.	.	.	.	.	24ee\	>
.	.	16d\	.	16f 16A/	.	.	.
.	.	.	.	.	.	24dd\JJ	.
8AA/	.	16d\	.	16f 16A/	.	24dd\LL	.
.	.	.	.	.	.	24cc#X\	.
.	.	16d\	.	16f 16A/	.	.	.
.	.	.	.	.	.	24b\JJ	.
8AA/J	.	16d\	.	16f 16A/	.	24b\LL	.
.	.	.	.	.	.	24a\	.
.	.	16d\JJ	.	16fJJ 16A/	.	.	.
.	.	.	.	.	.	24g#X\JJ	]
=35	=35	=35	=35	=35	=35	=35	=35
8AA'</L	.	16c#X\LL	.	16eLL 16A/	.	24a\LL	.
.	.	.	.	.	.	24cc#X\	.
.	.	16c#\	.	16e 16A/	.	.	.
.	.	.	.	.	.	24b\JJ	.
(<8C#X/	.	16c#\	.	16e 16A/	.	24a\LL	.
.	.	.	.	.	.	24ee\	.
.	.	16c#\	.	16eJJ 16A/	.	.	.
.	.	.	.	.	.	24dd\JJ	.
*	*	*	*	*Xtremolo	*	*	*
8E/J	.	16c#\	.	16gLL 16A/	.	24cc#\LL	.
.	.	.	.	.	.	24b\	.
.	.	16c#\JJ	.	16gJJ 16A/	.	.	.
!	!	!	!	!	!	!	!LO:DY:b
.	.	.	.	.	.	24a\JJ	sf
*	*	*	*	*tremolo	*	*	*
!	!	!	!	!	!	!	!LO:HP:b
8AA/L)	.	16d\LL	.	16fnLL 16A/	.	24ffn\LL	>
.	.	.	.	.	.	24ee\	.
.	.	16d\	.	16f 16A/	.	.	.
.	.	.	.	.	.	24dd\JJ	.
8AA'</	.	16d\	.	16f 16A/	.	24dd\LL	.
.	.	.	.	.	.	24cc#\	.
.	.	16d\	.	16f 16A/	.	.	.
.	.	.	.	.	.	24b\JJ	.
8AA'</J	.	16d\	.	16f 16A/	.	24b/LL	.
.	.	.	.	.	.	24a/	.
.	.	16d\JJ	.	16fJJ 16A/	.	.	.
.	.	.	.	.	.	24g#X/JJ	]]
=36	=36	=36	=36	=36	=36	=36	=36
!LO:TX:t=P:problem=mixed beam	!	!	!	!	!	!	!
8AA'</L	.	16c#X\LL	.	16eLL 16A/	.	24a\LL	.
.	.	.	.	.	.	24cc#X\	.
.	.	16c#\	.	16e 16A/	.	.	.
.	.	.	.	.	.	24b\JJ	.
8A|>\	.	16c#\	.	16e 16A/	.	24a\LL	.
.	.	.	.	.	.	24cc#\	.
.	.	16c#\JJ	.	16eJJ 16A/	.	.	.
.	.	.	.	.	.	24ee\JJ	.
*	*	*Xtremolo	*	*Xtremolo	*	*	*
(>8G#X^>\J	.	16dLL 16B^>\	.	16fn^>/LL	.	24ffn^<\LL	.
.	.	.	.	.	.	24ee\	.
.	.	16dJJ 16B\	.	16f/JJ	.	.	.
.	.	.	.	.	.	24dd\JJ	.
*	*	*tremolo	*	*tremolo	*	*	*
!LO:TX:t=P:problem=mixed beam	!	!	!	!	!	!	!
8A\L)	.	16c#\LL	.	16e/LL	.	24cc#\LL	.
.	.	.	.	.	.	24a\	.
.	.	16c#\	.	16e/	.	.	.
.	.	.	.	.	.	24b\JJ	.
8AA'</	.	16c#\	.	16e/	.	24cc#\LL	.
.	.	.	.	.	.	24dd\	.
.	.	16c#\JJ	.	16e/JJ	.	.	.
.	.	.	.	.	.	24ee\JJ	.
*	*	*Xtremolo	*	*Xtremolo	*	*	*
(<8GG#X^>/J	.	16dLL 16B^>\	.	16f^>/LL	.	24ffn^<\LL	.
.	.	.	.	.	.	24ee\	.
.	.	16dJJ 16B\	.	16f/JJ	.	.	.
.	.	.	.	.	.	24dd\JJ	.
=37	=37	=37	=37	=37	=37	=37	=37
*	*	*tremolo	*	*tremolo	*	*	*
!LO:TX:t=P:problem=mixed beam	!	!	!	!	!	!	!
8AA/L)	.	16c#X\LL	.	16e/LL	.	24cc#X\LL	.
.	.	.	.	.	.	24a\	.
.	.	16c#\	.	16e/	.	.	.
.	.	.	.	.	.	24b\JJ	.
8A|>\	.	16c#\	.	16e/	.	24cc#\LL	.
.	.	.	.	.	.	24dd\	.
.	.	16c#\JJ	.	16e/JJ	.	.	.
.	.	.	.	.	.	24ee\JJ	.
*	*	*Xtremolo	*	*Xtremolo	*	*	*
(>8G#X^>\J	.	16dLL 16B\	.	16fn^>/LL	.	24ffn^<\LL	.
.	.	.	.	.	.	24ee\	.
.	.	16dJJ 16B\	.	16f/JJ	.	.	.
.	.	.	.	.	.	24dd\JJ	.
*	*	*tremolo	*	*tremolo	*	*	*
!LO:TX:t=P:problem=mixed beam	!	!	!	!	!	!	!
8A\L)	.	16c#\LL	.	16e/LL	.	24cc#\LL	.
.	.	.	.	.	.	24a\	.
.	.	16c#\	.	16e/	.	.	.
.	.	.	.	.	.	24b\JJ	.
8AA|</	.	16c#\	.	16e/	.	24cc#\LL	.
.	.	.	.	.	.	24dd\	.
.	.	16c#\JJ	.	16e/JJ	.	.	.
.	.	.	.	.	.	24ee\JJ	.
*	*	*Xtremolo	*	*Xtremolo	*	*	*
(<8GG#X^>/J	.	16dLL 16B\	.	16f^>/LL	.	24ff^<\LL	.
.	.	.	.	.	.	24ee\	.
.	.	16dJJ 16B\	.	16f/JJ	.	.	.
.	.	.	.	.	.	24dd\JJ	.
!!LO:LB:g=original
=38	=38	=38	=38	=38	=38	=38	=38
!LO:TX:a:t=P:problem=brak zakończenia łuku	!	!	!	!	!	!	!LO:DY:b:rj
8AA/L)	.	(<8c#X/L	.	8e/L	.	8cc#X'>\L	f
8C#X/	.	8A/)	.	8a'</	.	8aa'>\	.
8E/J	.	8A'</J	.	8a'</J	.	8aa'>\J	.
!	!	!	!	!	!	!	!LO:DY:b:rj
8A\	.	8A/	.	(<8a/L	.	(>8aa\L	p
!	!	!	!	!	!	!LO:TX:i:b:t=dolce	!
8r	.	8r	.	8b/	.	8gg#X\	.
8r	.	8r	.	8cc#X/J)	.	8ggn\J	.
=39	=39	=39	=39	=39	=39	=39	=39
*	*	*	*	*	*	*^	*
!	!	!	!LO:DY:a:rj	!LO:TX:t=P:problem=mixed beam	!	!LO:N:vis=4	!	!
(<8D'</L	.	4A/	p	24dd\LL	.	8ff#/)	8ff#\L	.
.	.	.	.	24d'</	.	.	.	.
.	.	.	.	24f#'</JJ	.	.	.	.
*	*	*	*	*Xtuplet	*	*	*	*
!	!	!	!	!	!	!LO:N:vis=32	!	!
8D'</	.	.	.	24A'</LL	.	16eeL/	16ee\L	.
.	.	.	.	24d'</	.	.	.	.
!	!	!	!	!	!	!LO:N:vis=32	!	!
.	.	.	.	.	.	16dd/	16dd\	.
.	.	.	.	24f#'</JJ	.	.	.	.
!	!	!	!	!	!	!LO:N:vis=32	!LO:TX:a:t=P:problem=# abov	!
8D^</J)	.	(<8B/	.	24B'</LL	.	16cc#/	16cc#\	.
.	.	.	.	24d'</	.	.	.	.
!	!	!	!	!	!	!LO:N:vis=32	!	!
.	.	.	.	.	.	16bJ/	16b\JJ	.
.	.	.	.	24g'</JJ	.	.	.	.
*tremolo	*	*	*	*	*	*	*	*
!LO:TX:a:t=P:problem=trzy kropki pod nutą	!	!	!	!	!	!	!LO:N:vis=4	!
(<8D'</L	.	8A/L)	.	24A/LL	.	8a/	8a\	.
.	.	.	.	24d/	.	.	.	.
.	.	.	.	24f#/JJ	.	.	.	.
!	!	!	!	!	!	!LO:TX:a:t=P:problem=crescendo i decrescendo pod przednutkami nie wyświetla się	!	!LO:HP:b
.	.	.	.	.	.	(<16qcc#X/LL	.	<
!	!	!	!	!	!	!	!	!LO:HP:b
.	.	.	.	.	.	16qb/JJ	.	[ >
8D'</	.	8A'</J	.	24A/LL	.	8a/)	16.a\LL	]
.	.	.	.	24d/	.	.	.	.
.	.	.	.	.	.	.	.	.
.	.	.	.	24f#/JJ	.	.	.	.
.	.	.	.	.	.	.	32dd\JJk	.
8D'</J	.	8r	.	24A/LL	.	8r	8ryy	.
.	.	.	.	24d/	.	.	.	.
!	!	!	!	!LO:TX:t=P:problem=złe renderowanie	!	!	!	!
.	.	.	.	24f#/JJ	.	.	.	.
.	.	.	.	.	.	.	.	.
*Xtremolo	*	*	*	*	*	*	*	*
*	*	*	*	*	*	*v	*v	*
=40	=40	=40	=40	=40	=40	=40	=40
!	!	!	!	!	!	!	!LO:HP:b
.	.	.	.	.	.	(<8qdd#X/	<
8D'</L)	.	(<4.G/	.	24B/LL	.	8.ee\L)	.
.	.	.	.	24e/	.	.	.
.	.	.	.	24g/JJ	.	.	.
8D'</	.	.	.	24B-X^>/LL	.	.	.
.	.	.	.	24e/	.	.	.
.	.	.	.	.	.	16ff#|>\Jk	[
.	.	.	.	24g/JJ	.	.	.
*	*	*	*	*	*	*tuplet	*
!	!	!	!	!	!	!LO:TUP:a:problem=klamra łukowa	!
[<8D/J	.	.	.	24A/LL	.	24gg|>\LL	.
.	.	.	.	24e/	.	24bb\	.
.	.	.	.	24g/JJ	.	24aa^<\JJ	.
8D/L]	.	8F#/L)	.	24A/LL	.	8.aa\L	.
.	.	.	.	24d/	.	.	.
.	.	.	.	24f#/JJ	.	.	.
8D'</J	.	8F#'</J	.	24A/LL	.	.	.
.	.	.	.	24d/	.	.	.
.	.	.	.	.	.	16ff#\Jk	.
.	.	.	.	24f#/JJ	.	.	.
8r	.	8r	.	24A/LL	.	8dd#y\	.
.	.	.	.	24d/	.	.	.
.	.	.	.	24f#/JJ	.	.	.
=41	=41	=41	=41	=41	=41	=41	=41
*	*	*	*	*	*	*^	*
!	!	!	!	!	!	!LO:N:vis=4	!	!
8AA#X/L	.	4.c#X/	.	24c#X/LL	.	8ff#/	8ff#\L	.
.	.	.	.	24e/	.	.	.	.
.	.	.	.	24f#/JJ	.	.	.	.
!	!	!	!	!	!	!LO:N:vis=32	!	!
8r	.	.	.	24c#/LL	.	16gg#X/L	16gg#X\L	.
.	.	.	.	24e/	.	.	.	.
!	!	!	!	!	!	!LO:N:vis=32	!	!
.	.	.	.	.	.	16aa#X/	16aa#X\	.
.	.	.	.	24f#/JJ	.	.	.	.
!	!	!	!	!	!	!LO:N:vis=32	!	!
(<8AA#/J	.	.	.	24c#/LL	.	16bb/	16bb\	.
.	.	.	.	24e/	.	.	.	.
!	!	!	!	!	!	!LO:N:vis=32	!	!
.	.	.	.	.	.	16ccc#X/J	16ccc#X\JJ	.
.	.	.	.	24f#/JJ	.	.	.	.
8BB/L)	.	4.B/	.	24d/LL	.	16.ddd\LL	16.ryy	.
.	.	.	.	24f#/	.	.	.	.
.	.	.	.	24b/JJ	.	.	.	.
.	.	.	.	.	.	32ccc#\JJk	32ryy	.
8r	.	.	.	24d/LL	.	8bb|>\L	8ryy	.
.	.	.	.	24f#/	.	.	.	.
.	.	.	.	24b/JJ	.	.	.	.
(<8D/J	.	.	.	24d/LL	.	(>16.fff#^<\L	16.ryy	.
.	.	.	.	24f#/	.	.	.	.
.	.	.	.	24b/JJ	.	.	.	.
.	.	.	.	.	.	32eee\JJk	32ryy	.
*	*	*	*	*	*	*v	*v	*
!!LO:LB:g=original
=42	=42	=42	=42	=42	=42	=42	=42
!LO:TX:t=P:problem=łuk kończy się nad nutą	!	!	!	!	!	!	!
!LO:TX:t=P:problem=mixed beam	!	!	!	!	!	!	!
8E\L)	.	8A/	.	24c#X/LL	.	8ccc#X\L)	.
.	.	.	.	24e/	.	.	.
.	.	.	.	24a/JJ	.	.	.
8r	.	8r	.	24c#/LL	.	16ccc#'>\L	.
.	.	.	.	24e/	.	.	.
.	.	.	.	.	.	(>32.fff#^<\L	.
.	.	.	.	24a/JJ	.	.	.
.	.	.	.	.	.	64eee\JJJk)	.
(<8EE/J	.	(>8g#X\	.	24d/LL	.	16bb'>\LL	.
.	.	.	.	24e/	.	.	.
.	.	.	.	.	.	(>32.ddd^<\L	.
.	.	.	.	24g#X/JJ	.	.	.
.	.	.	.	.	.	64ccc#\JJJk)	.
!LO:TX:t=P:problem=mixed beam	!	!	!	!	!	!	!
8AA/L)	.	8a\L)	.	24c#/LL	.	8aa\L	.
.	.	.	.	24e/	.	.	.
.	.	.	.	24a/JJ	.	.	.
!	!	!	!	!	!	!LO:TUP:a	!
8A'>\J	.	8a'>\J	.	8c#/	.	(>24aa\L	.
.	.	.	.	.	.	24gg#X\	.
.	.	.	.	.	.	24bb\JJ	.
!	!	!	!	!	!	!LO:TUP:a	!
8r	.	8r	.	8r	.	24aa\LL	.
.	.	.	.	.	.	24ggn\	.
!	!	!	!	!	!	!LO:TX:a:t=P:problem=złe renderowanie	!
.	.	.	.	.	.	24ee\JJ	.
=43	=43	=43	=43	=43	=43	=43	=43
.	.	.	.	(<8qa/	.	.	.
*	*	*	*	*^	*	*	*
*Xtuplet	*	*	*	*	*	*	*	*
!	!	!	!	!LO:N:vis=4	!	!	!	!
24D\LL	.	4A/	.	8ff#/)	8ff#\L	.	8dd\)	.
24F#\	.	.	.	.	.	.	.	.
24A\JJ	.	.	.	.	.	.	.	.
!	!	!	!	!LO:N:vis=32	!	!	!	!
24D\LL	.	.	.	16ee/LL	16ee\L	.	8r	.
24F#\	.	.	.	.	.	.	.	.
!	!	!	!	!LO:N:vis=32	!	!	!	!
.	.	.	.	16dd/	16dd\	.	.	.
24A\JJ	.	.	.	.	.	.	.	.
!	!	!	!	!LO:N:vis=32	!	!	!	!
24D\LL	.	(<8B/	.	16cc#X/	16cc#X\	.	8r	.
24G\	.	.	.	.	.	.	.	.
!	!	!	!	!LO:N:vis=32	!	!	!	!
.	.	.	.	16b/JJ	16b\JJ	.	.	.
24B\JJ	.	.	.	.	.	.	.	.
!	!	!	!	!	!LO:N:vis=4	!	!	!
24D\LL	.	8A/L)	.	8a/	8a\	.	4r	.
24F#\	.	.	.	.	.	.	.	.
24A\JJ	.	.	.	.	.	.	.	.
.	.	.	.	(<16qqcc#/LL	.	.	.	.
.	.	.	.	16bqq/JJ)	.	.	.	.
24D\LL	.	8A'</J	.	8a/	8a\	.	.	.
24F#\	.	.	.	.	.	.	.	.
.	.	.	.	.	.	.	.	.
24A\JJ	.	.	.	.	.	.	.	.
24D\L	.	8r	.	8r	8ryy	.	16.r	.
24F#\	.	.	.	.	.	.	.	.
!LO:TX:a:t=P:problem=złe renderowanie	!	!	!	!	!	!	!	!
24A\J	.	.	.	.	.	.	.	.
.	.	.	.	.	.	.	32dd\	.
*	*	*	*	*v	*v	*	*	*
=44	=44	=44	=44	=44	=44	=44	=44
.	.	.	.	.	.	(<8qdd#X/	.
!	!	!	!	!LO:N:vis=1	!	!	!
24D\LL	.	8G/	.	2.r	.	8.ee\L)	.
24G\	.	.	.	.	.	.	.
24B\JJ	.	.	.	.	.	.	.
!	!	!LO:TX:b:t=P:problem=diminuendolike accent	!	!	!	!	!
24D\LL	.	(>4g^<\	.	.	.	.	.
24G\	.	.	.	.	.	.	.
!	!	!	!	!	!	!	!LO:HP:b
.	.	.	.	.	.	16ff#\Jk	<
24B-X\JJ	.	.	.	.	.	.	.
!	!	!	!	!	!	!LO:TUP:a	!
24D\LL	.	.	.	.	.	(>40gg\LLL	.
.	.	.	.	.	.	40gg#X\	.
24G\	.	.	.	.	.	.	.
!	!	!	!	!	!	!	!LO:HP:b
.	.	.	.	.	.	40aa\	[ >
.	.	.	.	.	.	40bb\	.
24A\JJ	.	.	.	.	.	.	.
.	.	.	.	.	.	40aa\JJJ	.
24D\LL	.	8f#X\L)	.	.	.	8aa'>\)	]
24F#\	.	.	.	.	.	.	.
24A\JJ	.	.	.	.	.	.	.
*rep	*	*	*	*	*	*	*
24D\LL	.	8d'>\J	.	.	.	(>32aa\LLL	.
.	.	.	.	.	.	32gg#\	.
24F#\	.	.	.	.	.	.	.
.	.	.	.	.	.	32ff#\	.
24A\JJ	.	.	.	.	.	.	.
.	.	.	.	.	.	32ee\JJJ)	.
*Xrep	*	*	*	*	*	*	*
*rep	*	*	*	*	*	*	*
24D\LL	.	8r	.	.	.	8dd#y\	.
24F#\	.	.	.	.	.	.	.
24A\JJ	.	.	.	.	.	.	.
*Xrep	*	*	*	*	*	*	*
=45	=45	=45	=45	=45	=45	=45	=45
*	*	*	*	*^	*	*	*
*	*	*	*	*	*	*	*^	*
!	!	!	!	!	!LO:N:vis=4	!	!LO:N:vis=4	!	!
24AA#X/LL	.	8e\L	.	8f#/L	8f#\	.	8ff#/	8ff#\L	.
24C#X/	.	.	.	.	.	.	.	.	.
24F#/JJ	.	.	.	.	.	.	.	.	.
*rep	*	*	*	*	*	*	*	*	*
!	!	!	!	!	!LO:N:vis=32	!	!LO:N:vis=32	!	!LO:HP:b
24AA#X/LL	.	8r	.	(<16g#X/L	16g#X\LL	.	16gg#X/L	16gg#X\L	<
24C#X/	.	.	.	.	.	.	.	.	.
!	!	!	!	!	!LO:N:vis=32	!	!LO:N:vis=32	!	!
.	.	.	.	16a#X/	16a#X\	.	16aa#X/	16aa#X\	.
24F#/JJ	.	.	.	.	.	.	.	.	.
*Xrep	*	*	*	*	*	*	*	*	*
*rep	*	*	*	*	*	*	*	*	*
!	!	!	!	!	!LO:N:vis=32	!	!LO:N:vis=32	!	!
24AA#X/LL	.	(>8e\J	.	16b/	16b\	.	16bb/	16bb\	.
24C#X/	.	.	.	.	.	.	.	.	.
!	!	!	!	!	!LO:N:vis=32	!	!LO:N:vis=32	!	!
.	.	.	.	16cc#X/JJ	16cc#X\JJ	.	16ccc#X/J	16ccc#X\JJ	[
24F#/JJ	.	.	.	.	.	.	.	.	.
*Xrep	*	*	*	*	*	*	*	*	*
24BB/LL	.	8d\)	.	16.dd/LL)	16.ryy	.	16.ddd\LL	16.ryy	.
24D/	.	.	.	.	.	.	.	.	.
24F#/JJ	.	.	.	.	.	.	.	.	.
.	.	.	.	32cc#/JJk	32ryy	.	32ccc#\JJk	32ryy	.
*rep	*	*	*	*	*	*	*	*	*
24BB/LL	.	8r	.	8b/	8ryy	.	8bb\L	8ryy	.
24D/	.	.	.	.	.	.	.	.	.
24F#/JJ	.	.	.	.	.	.	.	.	.
*Xrep	*	*	*	*	*	*	*	*	*
!	!	!LO:TX:a:t=P:problem=brak początku ligatury	!	!	!	!	!	!	!LO:HP:b
24GG/LL	.	[>8d\	.	8r	8ryy	.	(>16.fff#\L	8ryy	>
24BB/	.	.	.	.	.	.	.	.	.
24E/JJ	.	.	.	.	.	.	.	.	.
.	.	.	.	.	.	.	32eee\JJk)	.	]
*	*	*	*	*	*	*	*v	*v	*
*	*	*	*	*v	*v	*	*	*
!!LO:PB:g=original
=46	=46	=46	=46	=46	=46	=46	=46
24AA/LL	.	8d\L]	.	8f#L 8A/	.	[>8ddd\	.
24D/	.	.	.	.	.	.	.
24F#/JJ	.	.	.	.	.	.	.
24AA/LL	.	8d'>\J	.	8f#J 8A/	.	32ddd\LLL]	.
.	.	.	.	.	.	32ccc#X\	.
24D/	.	.	.	.	.	.	.
.	.	.	.	.	.	32bb\	.
24F#/JJ	.	.	.	.	.	.	.
.	.	.	.	.	.	32aa\JJJ	.
24AA/LL	.	8r	.	8r	.	32gg\LLL	.
.	.	.	.	.	.	32ff#\	.
24D/	.	.	.	.	.	.	.
.	.	.	.	.	.	32ee\	.
24F#/JJ	.	.	.	.	.	.	.
.	.	.	.	.	.	32dd\JJJ	.
!	!	!	!	!	!	!LO:TUP:a	!
24AA/LL	.	8c#X\L	.	8gL 8A/	.	24cc#X\LL	.
24E/	.	.	.	.	.	24bb\	.
24G/JJ	.	.	.	.	.	24bb-X\JJ	.
!	!	!	!	!	!	!LO:TUP:a	!
24AA/LL	.	8c#\J	.	8gJ 8A/	.	24aa\LL	.
24E/	.	.	.	.	.	24gg\	.
24G/JJ	.	.	.	.	.	24ff#\JJ	.
!	!	!	!	!	!	!LO:TUP:a	!
24AA/LL	.	8r	.	8r	.	24ee\LL	.
24C#X/	.	.	.	.	.	24dd\	.
!	!	!	!	!	!	!LO:TX:a:t=P:problem=złe renderowanie	!
24E/JJ	.	.	.	.	.	24cc#\JJ	.
=47	=47	=47	=47	=47	=47	=47	=47
*	*	*	*	*	*	*^	*
(>8qD/	.	.	.	.	.	.	.	.
*^	*	*	*	*	*	*	*	*
!LO:N:vis=4	!	!	!	!	!	!	!LO:TX:a:t=P:problem=złe renderowanie	!	!LO:DY:b
8F#/)	8F#\L	.	(<16d/LL	.	(<16f#/LL	.	8dd'>\	4.ryy	mf
.	.	.	16A/	.	16a/	.	.	.	.
!LO:N:vis=32	!	!	!	!	!	!	!	!	!
16E/LL	16E\L	.	16d/	.	16f#/	.	(>8ff#\L	.	.
!LO:N:vis=32	!	!	!	!	!	!	!	!	!
16D/	16D\	.	16A/	.	16a/	.	.	.	.
!LO:N:vis=32	!	!	!	!	!	!	!	!	!
16C#/	16C#\	.	16d/	.	16f#/	.	8aa\J)	.	.
.	.	.	.	.	.	.	.	.	.
!LO:N:vis=32	!	!	!	!	!	!	!	!	!
16BB/JJ	16BB\JJ	.	16A/JJ)	.	16a/JJ)	.	.	.	.
.	.	.	.	.	.	.	.	.	.
.	.	.	.	.	.	.	(>8qa/	.	.
*	*	*	*	*	*tremolo	*	*	*	*
!	!	!	!	!	!	!	!LO:N:vis=4	!	!
8AA|</L	4ryy	.	(<16c#X/LL	.	(<16g/LL	.	8gg/)	8gg\L	.
.	.	.	16A/	.	16a/	.	.	.	.
!	!	!	!	!	!	!	!LO:N:vis=32	!	!
(<8C#/	.	.	16e/	.	16g/	.	16ff#/L	16ff#\L	.
!	!	!	!	!	!	!	!LO:N:vis=32	!	!
.	.	.	16A/	.	16a/	.	16ee/	16ee\	.
!	!	!	!	!	!	!	!LO:N:vis=32	!	!
8E/J)	8ryy	.	16c#/	.	16g/	.	16dd/	16dd\	.
!	!	!	!	!	!	!	!LO:TX:a:t=P:problem=złe renderowanie. Powinna być 32-jka	!	!
!	!	!	!	!	!	!	!LO:N:vis=32	!	!
.	.	.	16A/JJ)	.	16a/JJ)	.	16cc#X/J	16cc#X\JJ	.
=48	=48	=48	=48	=48	=48	=48	=48	=48	=48
(<8qD/	.	.	.	.	.	.	.	.	.
*	*	*	*tremolo	*	*	*	*	*	*
!	!LO:N:vis=4	!	!	!	!	!	!	!	!
8F#/L)	8F#\	.	(<16d/LL	.	(<16f#/LL	.	8dd'>\L	4.ryy	.
.	.	.	16A/	.	16a/	.	.	.	.
!	!LO:N:vis=32	!	!	!	!	!	!	!	!
(>16E/L	16E\LL	.	16d/	.	16f#/	.	(>8ff#\	.	.
!	!LO:N:vis=32	!	!	!	!	!	!	!	!
16D/	16D\	.	16A/	.	16a/	.	.	.	.
!	!LO:N:vis=32	!	!	!	!	!	!	!	!
16C#X/	16C#X\	.	16d/	.	16f#/	.	8aa\J)	.	.
.	.	.	.	.	.	.	.	.	.
!	!LO:N:vis=32	!	!	!	!	!	!	!	!
16BB/JJ)	16BB\JJ	.	16A/JJ)	.	16a/JJ)	.	.	.	.
.	.	.	.	.	.	.	.	.	.
.	.	.	.	.	.	.	(>8qa/	.	.
*	*	*	*Xtremolo	*	*Xtremolo	*	*	*	*
!	!	!	!LO:SIC:v:s=c#	!	!	!	!LO:N:vis=4	!	!
8AA|</L	4ryy	.	(<16c/LL	.	(<16e/LL	.	8gg/)	8gg\L	.
.	.	.	16A/	.	16g/	.	.	.	.
!	!	!	!LO:SIC:v:s=c#	!	!	!	!LO:N:vis=32	!	!
(<8AA/	.	.	16c/	.	16e/	.	16ff#L/	16ff#\L	.
!	!	!	!	!	!	!	!LO:N:vis=32	!	!
.	.	.	16A/	.	16g/	.	16ee/	16ee\	.
!	!	!	!LO:SIC:v:s=c#	!	!	!	!LO:N:vis=32	!	!
8AA#X/J	8ryy	.	16c/	.	16e/	.	16dd/	16dd\	.
!	!	!	!	!	!	!	!LO:TX:a:t=P:problem=złe renderowanie. Powinna być 32-jka	!	!
!	!	!	!	!	!	!	!LO:N:vis=32	!	!
.	.	.	16F#/JJ)	.	16f#/JJ)	.	16cc#XJ/	16cc#X\JJ	.
*	*	*	*	*	*	*	*v	*v	*
*v	*v	*	*	*	*	*	*	*
=49	=49	=49	=49	=49	=49	=49	=49
.	.	(>8qF#/	.	.	.	.	.
*	*	*^	*	*	*	*	*
*	*	*	*	*	*^	*	*	*
*	*	*	*	*	*tremolo	*	*	*	*
!	!	!LO:N:vis=4	!	!	!	!	!	!	!
16BB/LL)	.	8f#/)	8f#\L	.	(<16d/LL	4.ryy	.	8dd|>\L	.
16FF#/	.	.	.	.	16f#/	.	.	.	.
!	!	!LO:N:vis=32	!	!	!	!	!	!	!
16BB/	.	16eL	16e\L	.	16d/	.	.	(>8ff#\	.
!	!	!LO:N:vis=32	!	!	!	!	!	!	!
16FF#/	.	16d	16d\	.	16f#/	.	.	.	.
!	!	!LO:SIC:v:s=c#	!LO:SIC:v:s=c#	!	!	!	!	!	!
!	!	!LO:N:vis=32	!	!	!	!	!	!	!
16BB/	.	16c	16c\	.	16d/	.	.	8bb\J	.
.	.	.	.	.	.	.	.	.	.
!	!	!LO:N:vis=32	!	!	!	!	!	!	!
16FF#/JJ	.	16BJ	16B\JJ	.	16f#/JJ)	.	.	.	.
.	.	.	.	.	.	.	.	.	.
*	*	*	*	*	*Xtremolo	*	*	*	*
.	.	.	.	.	(>8qe/	.	.	.	.
*tremolo	*	*tremolo	*	*	*	*	*	*	*
!	!	!	!	!	!LO:N:vis=4	!LO:N:vis=8	!	!	!
16GG#X/LL	.	(>16B\LL	4ryy	.	[>8ee)	8.ee\L	.	8ddd\L	.
16EE/	.	16e\	.	.	.	.	.	.	.
!	!	!	!	!	!LO:N:vis=32	!	!	!	!
16GG#/	.	16B\	.	.	(>16ee]L	.	.	8bb\	.
!	!	!	!	!	!LO:N:vis=32	!	!	!	!
16EE/	.	16e\	.	.	16dd	16dd\L	.	.	.
!	!	!	!	!	!LO:N:vis=32	!LO:TX:a:t=P:problem=# above	!	!	!
16GG#/	.	16B\	8ryy	.	16cc#X	16cc#X\	.	8gg#X\J)	.
!	!	!	!	!	!LO:N:vis=32	!	!	!	!
16EE/JJ	.	16e\JJ)	.	.	16bJ	16b\JJ	.	.	.
*	*	*Xtremolo	*	*	*	*	*	*	*
*	*	*	*	*	*v	*v	*	*	*
*	*	*v	*v	*	*	*	*	*
!!LO:LB:g=original
=50	=50	=50	=50	=50	=50	=50	=50
*	*	*	*	*^	*	*^	*
*	*	*tremolo	*	*	*	*	*	*	*
!	!	!	!	!LO:TX:a:t=P:problem=brak zakończenia łuku	!	!	!LO:N:vis=8	!	!
!	!	!	!	!	!	!	!LO:N:vis=4	!LO:N:vis=8	!
16AA/LL	.	(>16c#X\LL	.	8a\L)	4ryy	.	[>8aa/	8.aa\L	.
16EE/	.	16e\	.	.	.	.	.	.	.
!	!	!	!	!	!	!	!LO:N:vis=32	!	!
16AA/	.	16c#\	.	8cc#X\	.	.	16aa/]L	.	.
!	!	!	!	!	!	!	!LO:N:vis=32	!	!
16EE/	.	16e\	.	.	.	.	16ee/	(>16ee\L	.
!	!	!	!	!	!	!	!LO:N:vis=32	!	!
16AA/	.	16c#\	.	8ee\J	8ryy	.	16cc#X/	16cc#X\	.
.	.	.	.	.	.	.	.	.	.
!	!	!	!	!	!	!	!LO:N:vis=32	!	!
16EE/JJ	.	16e\JJ)	.	.	.	.	16a/J	16a\JJ	.
.	.	.	.	.	.	.	.	.	.
.	.	.	.	8qg#X/	.	.	.	.	.
!	!	!	!	!LO:N:vis=4	!LO:N:vis=8	!	!	!	!
16GG#X/LL	.	(>16d\LL	.	[>8ee/	8.ee\L	.	8g#X\L)	4ryy	.
16EE/	.	16e\	.	.	.	.	.	.	.
!	!	!	!	!LO:N:vis=32	!	!	!	!	!LO:HP:b:t=cresc
16GG#/	.	16d\	.	16ee]L	.	.	8b\	.	<
!	!	!	!	!LO:N:vis=32	!	!	!	!	!
16EE/	.	16e\	.	16dd	16dd\L	.	.	.	.
!	!	!	!	!LO:N:vis=32	!	!	!	!	!
16GG#/	.	16d\	.	16cc#	16cc#\	.	8ee\J	8ryy	.
.	.	.	.	.	.	.	.	.	.
!	!	!	!	!LO:N:vis=32	!	!	!	!	!
16EE/JJ	.	16e\JJ)	.	16bJ	16b\JJ	.	.	.	.
.	.	.	.	.	.	.	.	.	.
*Xtremolo	*	*	*	*	*	*	*	*	*
*	*	*	*	*v	*v	*	*	*	*
=51	=51	=51	=51	=51	=51	=51	=51	=51
*^	*	*	*	*	*	*	*	*
!LO:N:vis=8	!LO:N:vis=8	!	!	!	!	!	!	!	!
8.AA/L	8AA\LL	.	(<16c#X/LL	.	8a\L	.	8cc#X\	4ryy	.
.	.	.	16A/	.	.	.	.	.	.
!	!LO:N:vis=32	!	!	!	!	!	!	!	!
.	16AA	.	16c#/	.	8cc#X\	.	8r	.	.
!	!LO:N:vis=32	!	!	!	!	!	!	!	!
16C#X/L	16C#X\	.	16A/	.	.	.	.	.	.
!	!LO:N:vis=32	!	!	!	!	!	!	!	!
16E/	16E\	.	16c#/	.	8ee\J	.	8r	8ryy	.
.	.	.	.	.	.	.	.	.	.
!	!LO:N:vis=32	!	!	!	!	!	!	!	!
16GGn/JJ	16GGn\JJ	.	16A/JJ)	.	.	.	.	.	.
.	.	.	.	.	.	.	.	.	.
!	!	!	!	!	!LO:TX:t=P:problem=mixed beam	!	!	!	!
!	!	!	!	!	!	!	!LO:N:vis=4	!LO:N:vis=8	!
8FF#/L	4ryy	.	(<16d/LL	.	8ff#\L	.	8dd/	8.dd\L	.
.	.	.	16A/	.	.	.	.	.	.
!	!	!	!	!	!	!	!LO:N:vis=32	!	!
8AA/	.	.	16d/	.	8dd\	.	16ddL	.	.
!	!	!	!	!	!	!	!LO:N:vis=32	!	!
.	.	.	16A/	.	.	.	16ff#	(>16ff#\L	.
!	!	!	!	!	!	!	!LO:N:vis=32	!	!
8DD/J	8ryy	.	16d/	.	8f#/J	.	16aa	16aa\	.
.	.	.	.	.	.	.	.	.	.
!	!	!	!	!	!	!	!LO:N:vis=32	!	!
.	.	.	16A/JJ)	.	.	.	16ddJ	16dd\JJ	.
.	.	.	.	.	.	.	.	.	.
=52	=52	=52	=52	=52	=52	=52	=52	=52	=52
!LO:N:vis=8	!LO:N:vis=8	!	!	!	!	!	!	!	!
*	*	*	*	*	*tremolo	*	*	*	*
8.GG/L	8GG\LLL	.	(<16c#X/LL	.	16e/LL	.	8cc#X\L)	4ryy	.
.	.	.	16A/	.	16a/	.	.	.	.
!	!LO:N:vis=32	!	!	!	!	!	!	!	!
.	16GG\	.	16c#/	.	16e/	.	8ee\	.	.
!	!LO:N:vis=32	!	!	!	!	!	!	!	!
16C#X/L	16C#X\	.	16A/	.	16a/	.	.	.	.
!	!LO:N:vis=32	!	!	!	!	!	!	!	!
16E/	16E\	.	16c#/	.	16e/	.	8aa\J	8ryy	.
.	.	.	.	.	.	.	.	.	.
!	!LO:N:vis=32	!	!	!	!	!	!	!	!
16GG/JJ	16GG\JJJ	.	16A/JJ)	.	16a/JJ	.	.	.	.
.	.	.	.	.	.	.	.	.	.
!	!	!	!	!	!	!	!LO:N:vis=4	!LO:N:vis=8	!
8FF#/L	4ryy	.	(<16d/LL	.	16f#/LL	.	[>8dd/	8.dd\L	.
.	.	.	16A/	.	16a/	.	.	.	.
!	!	!	!	!	!	!	!LO:N:vis=32	!	!
8AA/	.	.	16d/	.	16f#/	.	16dd/L]	.	.
!	!	!	!	!	!	!	!LO:N:vis=32	!	!
.	.	.	16A/	.	16a/	.	16ff#/	16ff#\L	.
!	!	!	!	!	!	!	!LO:N:vis=32	!	!
8DD/J	8ryy	.	16d/	.	16f#/	.	16aa/	16aa\	.
.	.	.	.	.	.	.	.	.	.
!	!	!	!	!	!	!	!LO:N:vis=32	!	!
.	.	.	16A/JJ)	.	16a/JJ	.	16dd/J	16dd\JJ	.
.	.	.	.	.	.	.	.	.	.
*	*	*	*	*	*	*	*v	*v	*
=53	=53	=53	=53	=53	=53	=53	=53	=53
!LO:N:vis=8	!LO:N:vis=4	!LO:DY:b:rj	!LO:TX:a:t=P:problem=korekty nut w taktach 53-56	!	!LO:TX:a:t=P:problem=korekty nut w taktach 53-56	!LO:DY:b:rj	!LO:TX:a:t=P:problem=korekty nut w taktach 53-57	!LO:HP:b
!	!	!	!	!	!	!LO:HP:b	!	!LO:DY:b:rj
8.FFn/L	8FFn\	f	16d\L	.	16a\LL	f <	16dd\LL	f <
*	*	*	*	*	*	*	*	*
.	.	.	16d\	.	16a\	.	16dd\	.
!	!LO:N:vis=32	!	!	!	!	!	!	!
.	16FFL\	.	16d\	.	16a\	.	16dd\	.
!	!LO:N:vis=32	!	!	!	!	!	!	!
16AA/L	16AA\	.	16d\	.	16a\	.	16dd\	.
!	!LO:N:vis=32	!	!	!	!	!	!	!
16D/	16D\	.	16d\	.	16a\	.	16dd\	[
.	.	.	.	.	.	.	.	.
!	!LO:N:vis=32	!	!	!	!	!	!	!
16AA/JJ	16AAJ\	.	16d\J	.	16a\JJ	[	16dd\JJ	.
.	.	.	.	.	.	.	.	.
!LO:N:vis=8	!LO:N:vis=4	!	!LO:SIC:v:s=c#	!	!	!	!	!LO:DY:b:rj
!	!	!	!	!	!	!	!	!LO:HP:b
*	*	*	*	*	*	*	*tremolo	*
8.FF#X/L	8FF#\	.	16c\LL	.	16a\LL	.	16dd#X\LL	fz >
.	.	.	16c\	.	16a\	.	16dd#\	.
!	!LO:N:vis=32	!	!	!	!	!	!	!
.	16FF#LL\	.	16c\	.	16a\	.	16dd#\	.
!	!LO:N:vis=32	!	!	!	!	!	!	!
16AA/L	16AA\	.	16c\	.	16a\	.	16dd#\	.
!	!LO:N:vis=32	!	!	!	!	!	!	!
16C/	16C\	.	16c\	.	16a\	.	16dd#\	.
.	.	.	.	.	.	.	.	.
!	!LO:N:vis=32	!	!	!	!	!	!	!
16D#X/JJ	16D#XJJ\	.	16c\JJ	.	16a\JJ	.	16dd#\JJ	.
.	.	.	.	.	.	.	.	]]
=54	=54	=54	=54	=54	=54	=54	=54	=54
!LO:N:vis=8	!LO:N:vis=4	!	!LO:SIC:v:s=c#	!	!	!	!	!
8.GGn/L	8GGn\	.	16c\LL	.	16g\LL	.	16ee\LL	.
!	!	!	!	!	!	!	!	!LO:HP:b
.	.	.	16c\	.	16g\	.	16ee\	<
!	!LO:N:vis=32	!	!	!	!	!	!	!
.	16GGL\	.	16c\	.	16g\	.	16ee\	.
!	!LO:N:vis=32	!	!	!	!	!	!	!
16Cn/L	16Cn\	.	16c\	.	16g\	.	16ee\	.
!	!LO:N:vis=32	!	!	!	!	!	!	!
16E/	16E\	.	16c\	.	16g\	.	16ee\	.
.	.	.	.	.	.	.	.	.
!	!LO:N:vis=32	!	!	!	!	!	!	!
16G/JJ	16GJ\	.	16c\JJ	.	16g\JJ	.	16ee\JJ	.
.	.	.	.	.	.	.	.	.
!LO:N:vis=8	!LO:N:vis=4	!	!	!	!	!	!	!
8.GG/L	8GG\	.	16d\LL	.	16b\LL	.	16ffn\LL	[ >
.	.	.	16d\	.	16b\	.	16ff\	.
!	!LO:N:vis=32	!	!	!	!	!	!	!
.	16GG\L	.	16d\	.	16b\	.	16ff\	.
!	!LO:N:vis=32	!	!	!	!	!	!	!
16BB/L	16BB\	.	16d\	.	16b\	.	16ff\	.
!	!LO:N:vis=32	!	!	!	!	!	!	!
16D/	16D\	.	16d\	.	16b\	.	16ff\	.
.	.	.	.	.	.	.	.	.
!	!LO:N:vis=32	!	!	!	!	!	!	!
16GG#X/JJ	16GG#X\J	.	16d\JJ	.	16b\JJ	.	16ff\JJ	.
.	.	.	.	.	.	.	.	]]
!!LO:LB:g=original
=55	=55	=55	=55	=55	=55	=55	=55	=55
!LO:N:vis=8	!LO:N:vis=4	!	!	!	!	!	!	!
8.AA/L	8AA\	.	16c\LL	.	16a/LL	.	16ee\LL	.
.	.	.	16c\	.	16a/	.	16ee\	.
!	!LO:N:vis=32v	!	!	!	!	!	!	!
.	16AAL	.	16c\	.	16a/	.	16ee\	.
!	!LO:N:vis=32	!	!	!	!	!	!	!
16C/L	16C	.	16c\	.	16a/	.	16ee\	.
!	!LO:N:vis=32	!	!	!	!	!	!	!
16E/	16E	.	16c\	.	16a/	.	16ee\	.
.	.	.	.	.	.	.	.	.
!	!LO:N:vis=32	!	!	!	!	!	!	!
16C/JJ	16CJ	.	16c\	.	16a/	.	16ee\JJ	.
.	.	.	.	.	.	.	.	.
!LO:N:vis=8	!LO:N:vis=4	!	!	!	!	!	!	!
8.FFn/L	8FFn\	.	16c\	.	16a/	.	16dd\LL	.
!	!	!	!	!	!	!	!	!LO:HP:b
.	.	.	16c\	.	16a/	.	16dd\	<
!	!LO:N:vis=32	!	!	!	!	!	!	!
.	16FFL\	.	16c\	.	16a/	.	16dd\	.
!	!LO:N:vis=32	!	!	!	!	!	!	!
16AA/L	16AA\	.	16c\	.	16a/	.	16dd\	.
!	!LO:N:vis=32	!	!	!	!	!	!	!
16D/	16D\	.	16c\	.	16a/	.	16dd\	.
.	.	.	.	.	.	.	.	.
!	!LO:N:vis=32	!	!	!	!	!	!	!
16AA/JJ	16AAJ\	.	16c\JJ	.	16a/JJ	.	16dd\JJ	.
.	.	.	.	.	.	.	.	.
=56	=56	=56	=56	=56	=56	=56	=56	=56
!LO:N:vis=8	!LO:N:vis=4	!	!	!	!	!	!	!
8.GG/L	8GG\	.	16c\LL	.	16g/LL	.	16ee\LL	.
.	.	.	16c\	.	16g/	.	16ee\	.
!	!LO:N:vis=32	!	!	!	!	!	!	!
.	16GGL\	.	16c\	.	16g/	.	16ee\	.
!	!LO:N:vis=32	!	!	!	!	!	!	!
16C/L	16C\	.	16c\JJ	.	16g/	.	16ee\	.
*	*	*	*Xtremolo	*	*	*	*	*
!	!LO:N:vis=32	!	!	!	!	!	!	!
16E/	16E\	.	16c\LL	.	16g/	.	16ee\	.
.	.	.	.	.	.	.	.	.
!	!LO:N:vis=32	!	!	!	!	!	!	!
16G/JJ	16GJ\	.	16c\JJ	.	16g/JJ	.	16ee\JJ	[
.	.	.	.	.	.	.	.	.
*	*	*	*tremolo	*	*	*	*	*
!LO:N:vis=8	!LO:N:vis=4	!	!	!	!	!	!	!LO:DY:b
8.GG/L	8GG\	.	16B\LL	.	16g\LL	.	16dd\LL	ff
.	.	.	16B\	.	16g\	.	16dd\	.
!	!LO:N:vis=32	!	!	!	!	!	!	!
.	16GGL	.	16B\	.	16g\	.	16dd\	.
!	!LO:N:vis=32	!	!	!	!	!	!	!
16BB/L	16BB	.	16B\JJ	.	16g\JJ	.	16dd\JJ	.
!	!LO:N:vis=32	!	!	!	!	!	!	!
*	*	*	*	*	*Xtremolo	*	*Xtremolo	*
16D/	16D	.	8ryy	.	16fn\LL	.	16gg\LL	.
.	.	.	.	.	.	.	.	.
!	!LO:N:vis=32	!	!	!	!	!	!	!
16G/JJ	16GGJ	.	.	.	16f\JJ	.	16gg\JJ	.
.	.	.	.	.	.	.	.	.
*	*	*	*Xtremolo	*	*	*	*	*
*v	*v	*	*	*	*	*	*	*
=57	=57	=57	=57	=57	=57	=57	=57
.	.	.	.	8qe/	.	.	.
*	*	*	*	*^	*	*	*
*	*	*Xtuplet	*	*	*	*	*	*
!LO:TX:a:t=P:problem=przekreślona kauda w górę	!	!	!	!LO:N:vis=4	!	!	!LO:TX:a:t=P:problem=złe renderowanie	!LO:DY:b
8C\	.	24c\LL	.	8ee/	8ee\L	.	8cc\	p
.	.	24c\	.	.	.	.	.	.
.	.	24e\JJ	.	.	.	.	.	.
!	!	!	!	!LO:N:vis=32	!	!	!	!
8C/L	.	24G/LL	.	16dd/L	16dd\L	.	(<8g/L	.
.	.	24c/	.	.	.	.	.	.
!	!	!	!	!LO:N:vis=32	!	!	!	!
.	.	.	.	16cc/	16cc\	.	.	.
.	.	24e/JJ	.	.	.	.	.	.
!	!	!	!	!LO:N:vis=32	!	!	!	!
8C^</J	.	24A/LL	.	16b/	16b\	.	8a/J	.
.	.	.	.	.	.	.	.	.
.	.	24c/	.	.	.	.	.	.
!	!	!	!	!LO:N:vis=32	!	!	!	!
.	.	.	.	16a/J	16a\JJ	.	.	.
.	.	24fn/JJ	.	.	.	.	.	.
.	.	.	.	.	.	.	.	.
*tremolo	*	*	*	*	*	*	*	*
!	!	!	!	!	!LO:N:vis=4	!	!	!
8C/L	.	24G/LL	.	8g/	8g\	.	8g/L)	.
.	.	24B/	.	.	.	.	.	.
.	.	24e/JJ	.	.	.	.	.	.
*	*	*rep	*	*	*	*	*	*
.	.	.	.	(<16qb/LL	.	.	.	.
.	.	.	.	16qa/JJ)	.	.	.	.
8C/	.	24G/LL	.	8g/)	16.g\LL	.	8g'</J	.
.	.	24B/	.	.	.	.	.	.
.	.	.	.	.	.	.	.	.
.	.	24e/JJ	.	.	.	.	.	.
.	.	.	.	.	.	.	.	.
*	*	*Xrep	*	*	*	*	*	*
!LO:TX:a:t=P:problem=przez ligaturę złe renderowanie tremola	!	!	!	!	!	!	!	!
*	*	*rep	*	*	*	*	*	*
.	.	.	.	.	32cc\JJk	.	.	.
[<8C/J	.	24G/LL	.	8r	8ryy	.	8r	.
.	.	24B/	.	.	.	.	.	.
.	.	24e/JJ	.	.	.	.	.	.
.	.	.	.	.	.	.	.	.
*Xtremolo	*	*Xrep	*	*	*	*	*	*
*	*	*	*	*v	*v	*	*	*
=58	=58	=58	=58	=58	=58	=58	=58
.	.	.	.	(<8qcc#X/	.	.	.
8C/L]	.	24A/LL	.	8.dd\L)	.	(<4.fn/	.
.	.	24d/	.	.	.	.	.
.	.	24f#/JJ	.	.	.	.	.
8C'</	.	24A-X/LL	.	.	.	.	.
.	.	24d/	.	.	.	.	.
.	.	.	.	16ee\Jk	.	.	.
!	!	!LO:SIC:v:s=fn	!	!	!	!	!
.	.	24f#/JJ	.	.	.	.	.
*	*	*	*	*tuplet	*	*	*
!	!	!	!	!LO:TUP:a:problem=klamra łukowa	!	!	!
[<8C/J	.	24G/LL	.	24ffn\LL	.	.	.
.	.	24d/	.	24aa\	.	.	.
!	!	!LO:SIC:v:s=fn	!	!	!	!	!
.	.	24f#/JJ	.	24gg\JJ	.	.	.
8C/L]	.	24G/LL	.	8.gg\L	.	8e/L)	.
!	!	!LO:SIC:v:s=c#	!	!	!	!	!
.	.	24c/	.	.	.	.	.
.	.	24e/JJ	.	.	.	.	.
*	*	*rep	*	*	*	*	*
8C/J	.	24G/LL	.	.	.	8e'</J	.
!	!	!LO:SIC:v:s=c#	!	!	!	!	!
.	.	24c/	.	.	.	.	.
.	.	.	.	16ee\Jk	.	.	.
.	.	24e/JJ	.	.	.	.	.
*	*	*Xrep	*	*	*	*	*
*	*	*rep	*	*	*	*	*
8r	.	24G/LL	.	8cc#y\	.	8r	.
!	!	!LO:SIC:v:s=c#	!	!	!	!	!
.	.	24c/	.	.	.	.	.
.	.	24e/JJ	.	.	.	.	.
*	*	*Xrep	*	*	*	*	*
=59	=59	=59	=59	=59	=59	=59	=59
*	*	*	*	*^	*	*	*
!	!	!	!	!LO:N:vis=4	!	!	!LO:TX:t=P:problem=mixed beam	!
8GG#X/L	.	24B/LL	.	8ee/	8ee\L	.	8e/L	.
.	.	24d/	.	.	.	.	.	.
.	.	24e/JJ	.	.	.	.	.	.
*	*	*rep	*	*	*	*	*	*
!	!	!	!	!LO:N:vis=32	!	!	!	!
8r	.	24B/LL	.	16ff#XL	16ff#X\L	.	(>8ee\	.
.	.	24d/	.	.	.	.	.	.
!	!	!	!	!LO:N:vis=32	!	!	!	!
.	.	.	.	16gg#X	16gg#X\	.	.	.
.	.	24e/JJ	.	.	.	.	.	.
*	*	*Xrep	*	*	*	*	*	*
*	*	*rep	*	*	*	*	*	*
!	!	!	!	!LO:N:vis=32	!	!	!	!
(<8GG#/J	.	24B/LL	.	16aa	16aa\	.	8dd\J	.
.	.	.	.	.	.	.	.	.
.	.	24d/	.	.	.	.	.	.
!	!	!	!	!LO:N:vis=32	!	!	!	!
.	.	.	.	16bbJ	16bb\JJ	.	.	.
.	.	24e/JJ	.	.	.	.	.	.
.	.	.	.	.	.	.	.	.
*	*	*Xrep	*	*	*	*	*	*
8AA/L)	.	24c\LL	.	16.ccc\LL	4ryy	.	8cc\L)	.
.	.	24e\	.	.	.	.	.	.
.	.	24a\JJ	.	.	.	.	.	.
.	.	.	.	32bb\JJk	.	.	.	.
*	*	*rep	*	*	*	*	*	*
8r	.	24c\LL	.	8aa\L	.	.	8r	.
.	.	24e\	.	.	.	.	.	.
.	.	24a\JJ	.	.	.	.	.	.
*	*	*Xrep	*	*	*	*	*	*
*	*	*rep	*	*	*	*	*	*
8C/J	.	24c\LL	.	16.eee^<\L	8ryy	.	(>8a\J	.
.	.	24e\	.	.	.	.	.	.
.	.	24a\JJ	.	.	.	.	.	.
.	.	.	.	32ddd\JJk	.	.	.	.
*	*	*Xrep	*	*	*	*	*	*
*	*	*	*	*v	*v	*	*	*
!!LO:PB:g=original
=60	=60	=60	=60	=60	=60	=60	=60
!	!	!	!	!LO:TX:a:t=V. 2	!	!LO:TX:a:t=P:problem=brak zakończenia łuku	!
!	!	!	!	!	!	!LO:TX:a:t=V. I.	!
8D/L	.	24B\LL	.	[>8bb\L	.	8b/L)	.
.	.	24d\	.	.	.	.	.
.	.	24g\JJ	.	.	.	.	.
*	*	*rep	*	*	*	*	*
8r	.	24B\LL	.	16bb\L]	.	8r	.
.	.	24d\	.	.	.	.	.
.	.	.	.	(>32.eee^<\L	.	.	.
.	.	24g\JJ	.	.	.	.	.
.	.	.	.	64ddd\JJJk)	.	.	.
*	*	*Xrep	*	*	*	*	*
(<8DD/J	.	24c\LL	.	16aa'>\LL	.	(<8f#X/J	.
.	.	24d\	.	.	.	.	.
.	.	.	.	(>32.ccc^<\L	.	.	.
.	.	24f#X\JJ	.	.	.	.	.
.	.	.	.	64bb\JJJk)	.	.	.
!LO:TX:t=P:problem=mixed beam	!	!	!	!	!LO:HP:b	!	!
8GG/L)	.	24B\LL	.	8gg\L	<	8g/L)	.
.	.	24d\	.	.	.	.	.
.	.	24g\JJ	.	.	.	.	.
!	!	!	!	!LO:TUP:a:problem=klamra łukowa	!	!	!
8G'>\J	.	8B\	.	(>24gg\	.	8g'</J	.
.	.	.	.	24ff#X\	.	.	.
!	!	!	!	!	!LO:HP:b	!	!
.	.	.	.	24aa\J	[ >	.	.
!	!	!	!	!LO:TUP:a:problem=klamra łukowa	!	!	!
8r	.	8r	.	24gg\L	.	8r	.
.	.	.	.	24ffn\	]	.	.
!	!	!	!	!LO:TX:a:t=P:problem=złe renderowanie	!	!	!
.	.	.	.	24dd\J)	.	.	.
=61	=61	=61	=61	=61	=61	=61	=61
.	.	(>8qg/	.	.	.	.	.
*	*	*^	*	*	*	*	*
!	!	!LO:N:vis=4	!	!	!LO:TX:a:t=P:problem=złe renderowanie	!	!	!
24C\LL	.	8ee/)	8ee\L	.	8cc\	.	8g/	.
24E\	.	.	.	.	.	.	.	.
24G\JJ	.	.	.	.	.	.	.	.
!	!	!LO:N:vis=32	!	!	!	!	!	!
24C\LL	.	16dd/L	16dd\L	.	8r	.	(<8g/L	.
24E\	.	.	.	.	.	.	.	.
!	!	!LO:N:vis=32	!	!	!	!	!	!
.	.	16cc/	16cc\	.	.	.	.	.
24G\JJ	.	.	.	.	.	.	.	.
!	!	!LO:N:vis=32	!	!	!	!	!	!
24C\LL	.	16b/	16b\	.	8r	.	8a/J	.
.	.	.	.	.	.	.	.	.
24Fn\	.	.	.	.	.	.	.	.
!	!	!LO:N:vis=32	!	!	!	!	!	!
.	.	16a/J	16a\JJ	.	.	.	.	.
24A\JJ	.	.	.	.	.	.	.	.
.	.	.	.	.	.	.	.	.
24C\LL	.	4g/	8g\	.	4r	.	8g/L)	.
24E\	.	.	.	.	.	.	.	.
24G\JJ	.	.	.	.	.	.	.	.
*rep	*	*	*	*	*	*	*	*
24C\LL	.	.	8ryy	.	.	.	8g/J	.
24E\	.	.	.	.	.	.	.	.
.	.	.	.	.	.	.	.	.
24G\JJ	.	.	.	.	.	.	.	.
*Xrep	*	*	*	*	*	*	*	*
*rep	*	*	*	*	*	*	*	*
.	.	(<16qqb/LL	.	.	.	.	.	.
.	.	16qqa/JJ)	.	.	.	.	.	.
!	!	!	!	!	!LO:TX:a:t=V&colon; 2.	!	!LO:TX:a:t=V&colon; I.	!
24C\LL	.	16g/	8g\	.	16.r	.	8r	.
24E\	.	.	.	.	.	.	.	.
.	.	16r	.	.	.	.	.	.
24G\JJ	.	.	.	.	.	.	.	.
.	.	.	.	.	32cc\	.	.	.
*Xrep	*	*	*	*	*	*	*	*
*	*	*v	*v	*	*	*	*	*
=62	=62	=62	=62	=62	=62	=62	=62
.	.	.	.	(<8qcc#/	.	.	.
!	!	!	!	!	!	!LO:N:vis=1	!
24C\LL	.	(>4.fn\	.	8.dd\L)	.	2.r	.
24Fn\	.	.	.	.	.	.	.
24A\JJ	.	.	.	.	.	.	.
24C\LL	.	.	.	.	.	.	.
24F\	.	.	.	.	.	.	.
.	.	.	.	16ee\Jk	.	.	.
24A-X\JJ	.	.	.	.	.	.	.
!	!	!	!	!LO:TUP:a:problem=klamra łukowa	!LO:HP:b	!	!
24C\LL	.	.	.	40ff#\LLL	<	.	.
.	.	.	.	40ff#X\	.	.	.
24F\	.	.	.	.	.	.	.
!	!	!	!	!	!LO:HP:b	!	!
.	.	.	.	40gg\	[ >	.	.
.	.	.	.	40aa\	.	.	.
24G\JJ	.	.	.	.	.	.	.
.	.	.	.	40gg\JJJ	]	.	.
24C\LL	.	8e\L)	.	8.gg\L	.	.	.
24E\	.	.	.	.	.	.	.
24G\JJ	.	.	.	.	.	.	.
*rep	*	*	*	*	*	*	*
24C\LL	.	8e'>\J	.	.	.	.	.
24E\	.	.	.	.	.	.	.
.	.	.	.	16ee\Jk	.	.	.
24G\JJ	.	.	.	.	.	.	.
*Xrep	*	*	*	*	*	*	*
*rep	*	*	*	*	*	*	*
24C\LL	.	8r	.	8cc\	.	.	.
24E\	.	.	.	.	.	.	.
24G\JJ	.	.	.	.	.	.	.
*Xrep	*	*	*	*	*	*	*
=63	=63	=63	=63	=63	=63	=63	=63
*	*	*	*	*	*	*^	*
!	!	!	!LO:HP:b	!	!	!LO:N:vis=4	!	!LO:HP:b
24GG#X/LL	.	8e\L	<	8eL 8d/	.	8ee	8eeL	<
24BB/	.	.	.	.	.	.	.	.
24E/JJ	.	.	.	.	.	.	.	.
*rep	*	*	*	*	*	*	*	*
!	!	!	!	!	!	!LO:N:vis=32	!	!
24GG#X/LL	.	16f#X\L	.	8r	.	16ff#XL	16ff#X	.
24BB/	.	.	.	.	.	.	.	.
!	!	!	!	!	!	!LO:N:vis=32	!	!
.	.	16g#X\	.	.	.	16gg#X	16gg#X	.
24E/JJ	.	.	.	.	.	.	.	.
*Xrep	*	*	*	*	*	*	*	*
*rep	*	*	*	*	*	*	*	*
!	!	!	!	!	!	!LO:N:vis=32	!	!
24GG#X/LL	.	16a\	.	(<8eJ 8d/	.	16aa	16aa	.
24BB/	.	.	.	.	.	.	.	.
!	!	!	!	!	!	!LO:N:vis=32	!	!
.	.	16b\JJ	[	.	.	16bbJ	16bbJ	[
24E/JJ	.	.	.	.	.	.	.	.
*Xrep	*	*	*	*	*	*	*	*
!	!	!	!LO:HP:b	!	!	!	!	!LO:HP:b
24AA/LL	.	16.cc\LL	>	8e 8c/)	.	16.cccL	16.ryy	>
24C/	.	.	.	.	.	.	.	.
24E/JJ	.	.	.	.	.	.	.	.
.	.	32b\JJk	]	.	.	32bbJ	32ryy	]
*rep	*	*	*	*	*	*	*	*
24AA/LL	.	8a\	.	8r	.	8aaL	8ryy	.
24C/	.	.	.	.	.	.	.	.
24E/JJ	.	.	.	.	.	.	.	.
*Xrep	*	*	*	*	*	*	*	*
!	!	!LO:TX:a:t=P:problem=brak zakończenia łuku	!	!	!	!	!	!
24FFn/LL	.	(>8a\	.	8d/	.	(>16.eee^<	16.ryy	.
24AA/	.	.	.	.	.	.	.	.
24D/JJ	.	.	.	.	.	.	.	.
.	.	.	.	.	.	32dddJ)	32ryy	.
*	*	*	*	*	*	*v	*v	*
!!LO:LB:g=original
=64	=64	=64	=64	=64	=64	=64	=64
24GG/LL	.	8g\L)	.	8eL 8G/	.	[>8ccc\	.
24C/	.	.	.	.	.	.	.
24E/JJ	.	.	.	.	.	.	.
24G/LL	.	8r	.	8r	.	32ccc\LLL]	.
.	.	.	.	.	.	32bb\	.
24E/	.	.	.	.	.	.	.
.	.	.	.	.	.	32aa\	.
24C/JJ	.	.	.	.	.	.	.
.	.	.	.	.	.	32gg\JJJ	.
24GG/LL	.	(>8g\J	.	(<8eJ 8G/	.	32ffn\LLL	.
.	.	.	.	.	.	32ee\	.
24C/	.	.	.	.	.	.	.
.	.	.	.	.	.	32dd\	.
24E/JJ	.	.	.	.	.	.	.
.	.	.	.	.	.	32cc\JJJ	.
24GG/LL	.	8d\L)	.	8fnL 8G/)	.	32b\LLL	.
.	.	.	.	.	.	32a\	.
24BB/	.	.	.	.	.	.	.
!	!	!	!	!	!	!	!LO:HP:b
.	.	.	.	.	.	32g\	<
24D/JJ	.	.	.	.	.	.	.
.	.	.	.	.	.	32a\JJJ	.
24G/LL	.	8r	.	8r	.	32b\LLL	.
.	.	.	.	.	.	32cc\	.
24D/	.	.	.	.	.	.	.
.	.	.	.	.	.	32dd\	.
24BB/JJ	.	.	.	.	.	.	.
.	.	.	.	.	.	32ee\JJJ	.
!LO:TX:t=P:problem=mixed beam	!	!	!	!	!	!	!
24GG/LL	.	8d\J	.	8fJ 8G/	.	32ff\LLL	.
.	.	.	.	.	.	32gg\	.
24G\	.	.	.	.	.	.	.
.	.	.	.	.	.	32aa\	.
24G\JJ	.	.	.	.	.	.	.
.	.	.	.	.	.	32bb\JJJ	[
=65	=65	=65	=65	=65	=65	=65	=65
*	*	*	*	*	*	*tremolo	*
!	!LO:DY:b:rj	!	!LO:DY:a:rj	!LO:TX:t=P:problem=mixed beam	!	!	!LO:DY:b:rj
16C/LL	f	16e\LL	f	16e/LL 16G/	.	16cccLL 16ee\	fp
!	!	!	!LO:DY:b	!	!	!	!
!	!	!	!LO:HP:b	!	!	!	!
16C/	.	16e\	p <	16ee 16g\	.	16ccc 16ee\	.
16E/	.	16g\	.	16ee 16g\	.	16ccc 16ee\	.
!	!	!	!	!	!LO:DY:b	!	!
16E/	.	16g\	.	16ee 16g\	p	16ccc 16ee\	.
!	!	!LO:TX:a:t=P:problem=♮ above	!	!	!	!	!
16D/	.	16fn\	.	16ee 16g\	.	16ccc 16ee\	.
!	!	!	!LO:HP:b	!	!	!	!
16D/JJ	.	16f\JJ	[ >	16eeJJ 16g\	.	16ccc 16ee\	.
*	*	*	*	*tremolo	*	*	*
16C/LL	.	16e\LL	.	16eeLL 16g\	.	16ccc 16ee\	.
16C/	.	16e\	.	16ee 16g\	.	16ccc 16ee\	.
16BB/	.	16d\	.	16ee 16g\	.	16ccc 16ee\	.
16BB/	.	16d\	]	16ee 16g\	.	16ccc 16ee\	.
16C/	.	16e\	.	16ee 16g\	.	16ccc 16ee\	.
16C/JJ	.	16e\JJ	.	16eeJJ 16g\	.	16cccJJ 16ee\	.
*	*	*	*	*	*	*Xtremolo	*
=66	=66	=66	=66	=66	=66	=66	=66
*tremolo	*	*tremolo	*	*Xtremolo	*	*	*
!	!	!	!	!	!	!	!LO:DY:b
16C/LL	.	16fnLL 16d\	.	16ffn\LL	.	16ddd\LL	ff
!	!	!	!	!	!	!	!LO:HP:b
16C/	.	16f 16d\	.	16ff\	.	16ddd\	<
16C/	.	16f 16d\	.	16aa-X\	.	16fffn\	.
16C/	.	16f 16d\	.	16aa-\	.	16fff\	.
16C/	.	16f 16d\	.	16gg\	.	16eee\	.
16C/	.	16f 16d\	.	16gg\JJ	.	16eee\JJ	[
16C/	.	16f 16d\	.	16ffn\LL	.	16ddd\LL	.
16C/	.	16f 16d\	.	16ff\	.	16ddd\	.
!	!	!	!	!	!	!	!LO:HP:b
16C/	.	16f 16d\	.	16ee\	.	16ccc#X\	>
16C/	.	16f 16d\	.	16ee\	.	16ccc#\	.
16C/	.	16f 16d\	.	16ff\	.	16ddd\	.
16C/JJ	.	16fJJ 16d\	.	16ff\JJ	.	16ddd\JJ	.
*Xtremolo	*	*Xtremolo	*	*	*	*	*
=67	=67	=67	=67	=67	=67	=67	=67
*	*	*	*	*tremolo	*	*tremolo	*
!	!	!	!	!	!	!	!LO:DY:b
16C/LL	.	16eLL 16c\	.	16eeLL 16cc\	.	16cccnLL 16ee\	] p
16C/	.	16e\	.	16ee 16cc\	.	16ccc 16ee\	.
16E/	.	16g\	.	16ee 16cc\	.	16ccc 16ee\	.
16E/	.	16g\	.	16ee 16cc\	.	16ccc 16ee\	.
16D/	.	16fn\	.	16ee 16cc\	.	16ccc 16ee\	.
16D/JJ	.	16f\JJ	.	16ee 16cc\	.	16ccc 16ee\	.
16C/LL	.	16e\LL	.	16ee 16cc\	.	16ccc 16ee\	.
16C/	.	16e\	.	16ee 16cc\	.	16ccc 16ee\	.
16BB/	.	16d\	.	16ee 16cc\	.	16ccc 16ee\	.
16BB/	.	16d\	.	16ee 16cc\	.	16ccc 16ee\	.
16C/	.	16e\	.	16ee 16cc\	.	16ccc 16ee\	.
16C/JJ	.	16e\JJ	.	16eeJJ 16cc\	.	16cccJJ 16ee\	.
*	*	*	*	*	*	*Xtremolo	*
=68	=68	=68	=68	=68	=68	=68	=68
*tremolo	*	*tremolo	*	*Xtremolo	*	*	*
!	!	!	!	!	!	!	!LO:HP:b
!	!	!	!	!	!	!	!LO:DY:b
16C/LL	.	16fnLL 16d\	.	16ffn\LL	.	16ddd\LL	ff <
16C/	.	16f 16d\	.	16ff\	.	16ddd\	.
!	!	!	!	!	!	!LO:TX:a:t=P:problem=♮ above	!
16C/	.	16f 16d\	.	16aa-X\	.	16fffn\	.
16C/	.	16f 16d\	.	16aa-\	.	16fff\	.
16C/	.	16f 16d\	.	16gg\	.	16eee\	.
16C/JJ	.	16fJJ 16d\	.	16gg\JJ	.	16eee\JJ	[
!	!	!	!	!	!	!	!LO:HP:b
16BB/LL	.	16fLL 16d\	.	16aa-\LL	.	16fff\LL	>
16BB/	.	16f 16d\	.	16aa-\	.	16fff\	.
16BB/	.	16f 16d\	.	16gg\	.	16eee\	.
16BB/	.	16fJJ 16d\	.	16gg\	.	16eee\	.
*	*	*Xtremolo	*	*	*	*	*
16BB/	.	16d\LL	.	16bb 16ff\	.	16ddd\	.
16BB/JJ	.	16d\JJ	.	16bbJJ 16ff\	.	16ddd\JJ	]]
*Xtremolo	*	*	*	*	*	*	*
!!LO:LB:g=original
=69	=69	=69	=69	=69	=69	=69	=69
*	*	*	*	*tremolo	*	*tremolo	*
!	!	!	!	!	!	!	!LO:DY:b:t=p.
16AA/LL	.	16c\LL	.	16ccc\LL	.	16eee\LL	p
!	!	!	!LO:HP:b	!	!	!	!
16AA/	.	16c\	<	16ccc\	.	16eee\	.
16C/	.	16ee\	.	16ccc\	.	16eee\	.
16C/	.	16ee\	.	16ccc\	.	16eee\	.
16BB/	.	16dd\	.	16ccc\	.	16eee\	.
16BB/JJ	.	16dd\JJ	.	16ccc\	.	16eee\	.
16AA/LL	.	16cc\LL	.	16ccc\	.	16eee\	.
16AA/	.	16cc\	.	16ccc\	.	16eee\	.
!	!	!	!LO:HP:b	!	!	!	!
16GG#X/	.	16b\	[ >	16ccc\	.	16eee\	.
16GG#/	.	16b\	.	16ccc\	.	16eee\	.
16AA/	.	16cc\	.	16ccc\	.	16eee\	.
16AA/JJ	.	16cc\JJ	]]	16ccc\JJ	.	16eee\JJ	.
=70	=70	=70	=70	=70	=70	=70	=70
*	*	*tremolo	*	*	*	*	*
!LO:TX:t=P:problem=mixed beam	!	!	!	!	!	!	!
16GGn/LL	.	16cc\LL	.	16bb-XLL 16cc\	.	16eee\LL	.
!	!	!	!	!	!	!	!LO:HP:b
16GG/	.	16cc\	.	16bb- 16cc\	.	16eee\	<
16G\	.	16cc\	.	16bb- 16cc\	.	16eee\	.
16G\	.	16cc\	.	16bb- 16cc\	.	16eee\	.
!LO:TX:a:t=P:problem=♮ above	!	!	!	!	!	!	!
16Fn\	.	16cc\	.	16bb- 16cc\	.	16eee\	.
16F\JJ	.	16cc\JJ	.	16bb- 16cc\	.	16eee\	.
16E\LL	.	16g\LL	.	16bb- 16cc\	.	16eee\	.
16E\	.	16g\	.	16bb- 16cc\	.	16eee\	.
16D\	.	16g\	.	16bb- 16cc\	.	16eee\	.
16D\	.	16g\JJ	.	16bb- 16cc\	.	16eee\	.
16C\	.	8ryy	.	16bb- 16cc\	.	16eee\	.
16C\JJ	.	.	.	16bb-JJ 16cc\	.	16eee\JJ	.
*kcancel	*	*kcancel	*	*kcancel	*	*kcancel	*
=71	=71	=71	=71	=71	=71	=71	=71
*k[b-e-]	*	*k[b-e-]	*	*k[b-e-]	*	*k[b-e-]	*
!	!	!	!	!	!	!	!LO:HP:b
!	!	!	!	!	!	!	!LO:DY:b:rj
16D-X\LL	.	16f\LL	.	16aa-X\LL	.	16fff\LL	[ f >
16D-\	.	16f\	.	16aa-\	.	16fff\	.
16F\	.	16f\	.	16aa-\	.	16fff\	.
16F\	.	16f\	.	16aa-\	.	16fff\	.
16E-X\	.	16f\	.	16aa-\	.	16fff\	.
16E-\JJ	.	16f\	.	16aa-\	.	16fff\	.
16D-\LL	.	16f\	.	16aa-\	.	16fff\	.
16D-\	.	16f\	.	16aa-\	.	16fff\	.
16C\	.	16f\	.	16aa-\	.	16fff\	.
16C\	.	16f\	.	16aa-\	.	16fff\	]
16D-\	.	16f\	.	16aa-\	.	16fff\	.
16D-\JJ	.	16f\JJ	.	16aa-\JJ	.	16fff\JJ	.
=72	=72	=72	=72	=72	=72	=72	=72
*tremolo	*	*	*	*	*	*	*
16D-X\LL	.	16f\LL	.	16aa-X\LL	.	16fff\LL	.
16D-\	.	16f\	.	16aa-\	.	16fff\	.
16A-X\	.	16f\	.	16aa-\	.	16fff\	.
16A-\	.	16f\	.	16aa-\	.	16fff\	.
16G-X\	.	16f\	.	16aa-\	.	16fff\	.
16G-\JJ	.	16f\	.	16aa-\	.	16fff\	.
16F\LL	.	16f\	.	16aa-\	.	16fff\	.
16F\	.	16f\	.	16aa-\	.	16fff\	.
16E-\	.	16f\	.	16aa-\	.	16fff\	.
16E-\	.	16f\	.	16aa-\	.	16fff\	.
16D-\	.	16f\	.	16aa-\	.	16fff\	.
16D-\JJ	.	16f\JJ	.	16aa-\JJ	.	16fff\JJ	.
*	*	*Xtremolo	*	*	*	*	*
=73	=73	=73	=73	=73	=73	=73	=73
16G-X\LL	.	16d-X\LL	.	16bb-X\LL	.	16ggg-X\LL	.
16G-\	.	16dd-X\	.	16bb-\	.	16ggg-\	.
16d-X\	.	16dd-\	.	16bb-\	.	16ggg-\	.
16d-\	.	16dd-\	.	16bb-\	.	16ggg-\	.
16c-X\	.	16dd-\	.	16bb-\	.	16ggg-\	.
16c-\JJ	.	16dd-\JJ	.	16bb-\	.	16ggg-\	.
*	*	*tremolo	*	*	*	*	*
16B-\LL	.	16dd-\LL	.	16bb-\	.	16ggg-\	.
16B-\	.	16dd-\	.	16bb-\	.	16ggg-\	.
16A-X\	.	16dd-\	.	16bb-\	.	16ggg-\	.
16A-\	.	16dd-\	.	16bb-\	.	16ggg-\	.
16G-X\	.	16dd-\	.	16bb-\	.	16ggg-\	.
16G-\JJ	.	16dd-\JJ	.	16bb-\JJ	.	16ggg-\JJ	.
=74	=74	=74	=74	=74	=74	=74	=74
!	!	!	!	!	!	!	!LO:HP:b
16G-X\LL	.	16dd-X\LL	.	16bb-\LL	.	16eeen\LL	<
16G-\	.	16dd-\	.	16bb-\	.	16eee\	.
16d-X\	.	16dd-\	.	16bb-\	.	16eee\	.
16d-\	.	16dd-\	.	16bb-\	.	16eee\	.
16c-X\	.	16dd-\	.	16bb-\	.	16eee\	.
16c-\JJ	.	16dd-\	.	16bb-\	.	16eee\	.
16B-\LL	.	16dd-\	.	16bb-\	.	16eee\	.
16B-\	.	16dd-\	.	16bb-\	.	16eee\	.
16A-X\	.	16dd-\	.	16bb-\	.	16eee\	.
16A-\	.	16dd-\	.	16bb-\	.	16eee\	.
16G-X\	.	16dd-\	.	16bb-\	.	16eee\	.
16G-\JJ	.	16dd-\JJ	.	16bb-\JJ	.	16eee\JJ	[
=75	=75	=75	=75	=75	=75	=75	=75
!	!	!	!	!	!	!	!LO:DY:b
16F\LL	.	16ddn\LL	.	16bb-\LL	.	16fffn\LL	ff
16F\	.	16dd\	.	16bb-\	.	16fff\	.
16f\	.	16dd\	.	16bb-\	.	16fff\	.
16f\	.	16dd\	.	16bb-\	.	16fff\	.
!LO:TX:a:t=P:problem=♮ above	!	!	!	!	!	!	!
16en\	.	16dd\	.	16bb-\	.	16fff\	.
16e\JJ	.	16dd\	.	16bb-\	.	16fff\JJ	.
!LO:TX:a:t=P:problem=♮ above	!	!	!	!	!	!	!
*	*	*	*	*	*	*Xtremolo	*
16dn\LL	.	16dd\	.	16bb-\	.	16fff\LL	.
16d\	.	16dd\	.	16bb-\	.	16fff\	.
16c\	.	16dd\	.	16bb-\	.	16fff\	.
16c\	.	16dd\	.	16bb-\	.	16fff\	.
16B-\	.	16dd\	.	16bb-\	.	16ddd\	.
16B-\JJ	.	16dd\JJ	.	16bb-\JJ	.	16ddd\JJ	.
!!LO:PB:g=original
=76	=76	=76	=76	=76	=76	=76	=76
*Xtremolo	*	*	*	*	*	*tremolo	*
16An\LL	.	16ee-\LL	.	16ccc\LL	.	16ccc\LL	.
16A\	.	16ee-\	.	16ccc\	.	16ccc\	.
16G\	.	16ee-\	.	16ccc\	.	16ccc\	.
16G\	.	16ee-\	.	16ccc\	.	16ccc\	.
16F\	.	16ee-\	.	16ccc\	.	16ccc\	.
16F\JJ	.	16ee-\	.	16ccc\	.	16ccc\JJ	.
16E-\LL	.	16ee-\	.	16ccc\	.	(>16ccc\LL	.
16E-\	.	16ee-\	.	16ccc\	.	16fff\)	.
16D\	.	16ee-\	.	16ccc\	.	16fff'>\	.
16D\	.	16ee-\	.	16ccc\	.	(>16fff\	.
16C\	.	16ee-\	.	16ccc\	.	16aan\)	.
16C\JJ	.	16ee-\JJ	.	16ccc\JJ	.	16aa'>\JJ	.
*	*	*Xtremolo	*	*	*	*	*
=77	=77	=77	=77	=77	=77	=77	=77
!	!	!	!	!	!	!	!LO:HP:b
16BB-X/LL	.	(>16dd\LL	.	(>16ddd\LL	.	16bb-\LL	<
16BB-/	.	16d\)	.	16dd\)	.	16bb-\	.
16D/	.	16f'>\	.	16dd'>\	.	16bb-\	.
16D/	.	16f'>\	.	16dd'>\	.	16bb-\	.
16C/	.	16e-'>\	.	16dd'>\	.	16bb-\	.
16C/JJ	.	16e-'>\JJ	.	16dd'>\JJ	.	16bb-\	.
!	!	!	!	!	!	!	!LO:HP:b
16BB-/LL	.	16d\LL	.	16dd\LL	.	16bb-\	[ >
16BB-/	.	16d\	.	16dd\	.	16bb-\	.
16AA/	.	16c\	.	16dd\	.	16bb-\	.
16AA/	.	16c\	.	16dd\	.	16bb-\	.
16BB-/	.	16d\	.	16dd\	.	16bb-\	.
16BB-/JJ	.	16d\JJ	.	16dd\JJ	.	16bb-\JJ	]]
*	*	*	*	*	*	*Xtremolo	*
=78	=78	=78	=78	=78	=78	=78	=78
*tremolo	*	*tremolo	*	*Xtremolo	*	*	*
!	!	!	!	!	!	!	!LO:DY:b
16BB-/LL	.	16e-LL 16c\	.	16ee-\LL	.	16ccc\LL	f
!	!	!	!	!	!	!	!LO:HP:b
16BB-/	.	16e- 16c\	.	16ee-\	.	16ccc\	<
16BB-/	.	16e- 16c\	.	16gg-X\	.	16eee-\	.
16BB-/	.	16e- 16c\	.	16gg-\	.	16eee-\	.
16BB-/	.	16e- 16c\	.	16ff\	.	16ddd\	.
16BB-/	.	16e- 16c\	.	16ff\JJ	.	16ddd\JJ	.
!	!	!	!	!	!	!	!LO:HP:b
16BB-/	.	16e- 16c\	.	16ee-\LL	.	16ccc\LL	[ >
16BB-/	.	16e- 16c\	.	16ee-\	.	16ccc\	.
16BB-/	.	16e- 16c\	.	16dd\	.	16bbn\	.
16BB-/	.	16e- 16c\	.	16dd\	.	16bb\	]
16BB-/	.	16e- 16c\	.	16ee-\	.	16ccc\	.
16BB-/JJ	.	16e-JJ 16c\	.	16ee-\JJ	.	16ccc\JJ	.
*Xtremolo	*	*Xtremolo	*	*tremolo	*	*	*
=79	=79	=79	=79	=79	=79	=79	=79
*	*	*	*	*	*	*tremolo	*
!	!	!	!	!	!	!	!LO:HP:b
16BB-X/LL	.	16d\LL	.	16dd\LL	.	16bb-\LL	<
16BB-/	.	16d\	.	16dd\	.	16bb-\	.
16D/	.	16f\	.	16dd\	.	16bb-\	.
16D/	.	16f\	.	16dd\	.	16bb-\	.
16C/	.	16e-\	.	16dd\	.	16bb-\	.
16C/JJ	.	16e-\JJ	.	16dd\	.	16bb-\	.
16BB-/LL	.	16d\LL	.	16dd\	.	16bb-\	.
16BB-/	.	16d\	.	16dd\	.	16bb-\	.
16AA/	.	16c\	.	16dd\	.	16bb-\	.
16AA/	.	16c\	.	16dd\	.	16bb-\	.
16BB-/	.	16d\	.	16dd\	.	16bb-\	.
16BB-/JJ	.	16d\JJ	.	16dd\JJ	.	16bb-\JJ	[
*	*	*	*	*	*	*Xtremolo	*
=80	=80	=80	=80	=80	=80	=80	=80
*tremolo	*	*tremolo	*	*Xtremolo	*	*	*
16BB-/LL	.	16e-LL 16c\	.	16ee-\LL	.	16ccc\LL	.
16BB-/	.	16e- 16c\	.	16ee-\	.	16ccc\	.
16BB-/	.	16e- 16c\	.	16gg-X\	.	16eee-\	.
16BB-/	.	16e- 16c\	.	16gg-\	.	16eee-\	.
!	!	!	!	!	!	!	!LO:HP:b
16BB-/	.	16e- 16c\	.	16ff\	.	16ddd\	>
16BB-/JJ	.	16e-JJ 16c\	.	16ff\JJ	.	16ddd\JJ	.
16AA/LL	.	16e-LL 16c\	.	16gg-\LL	.	16eee-\LL	.
16AA/	.	16e- 16c\	.	16gg-\	.	16eee-\	.
16AA/	.	16e- 16c\	.	16ff\	.	16ddd\	.
16AA/	.	16e-JJ 16c\	.	16ff\	.	16ddd\	.
*	*	*Xtremolo	*	*	*	*	*
16AA/	.	16c\LL	.	16aan\	.	16ccc\	.
16AA/JJ	.	16c\JJ	.	16aa\JJ	.	16ccc\JJ	]
*Xtremolo	*	*	*	*tremolo	*	*	*
=81	=81	=81	=81	=81	=81	=81	=81
*	*	*	*	*	*	*tremolo	*
!	!	!	!	!	!	!	!LO:HP:b
16GG/LL	.	16B-/LL	.	16bb-\LL	.	16ddd\LL	<
16GG/	.	16B-/	.	16bb-\	.	16ddd\	.
16BB-/	.	16d/	.	16bb-\	.	16ddd\	.
16BB-/	.	16d/	.	16bb-\	.	16ddd\	.
16AA/	.	16c/	.	16bb-\	.	16ddd\	.
16AA/JJ	.	16c/JJ	.	16bb-\	.	16ddd\	.
16GG/LL	.	16B-/LL	.	16bb-\	.	16ddd\	.
16GG/	.	16B-/	.	16bb-\	.	16ddd\	.
16FF#X/	.	16A/	.	16bb-\	.	16ddd\	.
16FF#/	.	16A/	.	16bb-\	.	16ddd\	.
16GG/	.	16B-/	.	16bb-\	.	16ddd\	.
16GG/JJ	.	16B-/JJ	.	16bb-\JJ	.	16ddd\JJ	[
!!LO:LB:g=original
=82	=82	=82	=82	=82	=82	=82	=82
*tremolo	*	*	*	*Xtremolo	*	*	*
!	!	!LO:TX:t=P:problem=mixed beam	!	!	!	!	!LO:HP:b
16EE-X/LL	.	(>16G/LL	.	(>16bb-\LL	.	16ccc#X\LL	>
16EE-/	.	16g\)	.	16b-\)	.	16ccc#\	.
16EE-/	.	16g'>\	.	16b-\	.	16ccc#\	.
16EE-/	.	16g'>\	.	16b-\	.	16ccc#\	.
16EE-/	.	16g'>\	.	16a\	.	16ccc#\	.
16EE-/	.	16g'>\JJ	.	16a\JJ	.	16ccc#\	.
*	*	*tremolo	*	*	*	*	*
16EE-/	.	16g\LL	.	16g/LL	.	16ccc#\	.
16EE-/	.	16g\	.	16g/	.	16ccc#\	.
16EE-/	.	16g\	.	16b-/	.	16ccc#\	.
16EE-/	.	16g\	.	16b-/	.	16ccc#\	.
16EE-/	.	16g\	.	16a/	.	16ccc#\	.
16EE-/JJ	.	16g\JJ	.	16a/JJ	.	16ccc#\JJ	]
*	*	*	*	*tremolo	*	*	*
=83!|:	=83!|:	=83!|:	=83!|:	=83!|:	=83!|:	=83!|:	=83!|:
!	!	!	!	!	!	!	!LO:HP:b
16DD/LL	.	16f#X\LL	.	16a/LL	.	16ddd\LL	<
16DD/	.	16f#\	.	16a/	.	16ddd\	.
16FF#X/	.	16a\	.	16a/	.	16ddd\	.
16FF#/	.	16a\	.	16a/	.	16ddd\	.
16EEn/	.	16g\	.	16a/	.	16ddd\	.
16EE/JJ	.	16g\JJ	.	16a/	.	16ddd\	.
16DD/LL	.	16f#\LL	.	16a/	.	16ddd\	.
16DD/	.	16f#\	.	16a/	.	16ddd\	.
16CC#X/	.	16en\	.	16a/	.	16ddd\	.
16CC#/	.	16e\	.	16a/	.	16ddd\	.
16DD/	.	16f#\	.	16a/	.	16ddd\	.
16DD/JJ	.	16f#\JJ	.	16a/JJ	.	16ddd\JJ	[
*	*	*	*	*Xtremolo	*	*	*
=84	=84	=84	=84	=84	=84	=84	=84
!	!	!	!	!	!	!	!LO:HP:b
16EE-X/LL	.	16g\LL	.	16g/LL	.	16ccc#X\LL	>
16EE-/	.	16g\	.	16g/	.	16ccc#\	.
16EE-/	.	16g\	.	16b-/	.	16ccc#\	.
16EE-/	.	16g\	.	16b-/	.	16ccc#\	.
16EE-/	.	16g\	.	16a/	.	16ccc#\	.
16EE-/	.	16g\	.	16a/JJ	.	16ccc#\	.
*	*	*	*	*rep	*	*	*
16EE-/	.	16g\	.	16g/LL	.	16ccc#\	.
16EE-/	.	16g\	.	16g/	.	16ccc#\	.
16EE-/	.	16g\	.	16b-/	.	16ccc#\	.
16EE-/	.	16g\	.	16b-/	.	16ccc#\	.
16EE-/	.	16g\	.	16a/	.	16ccc#\	.
16EE-/JJ	.	16g\JJ	.	16a/JJ	.	16ccc#\JJ	]
*Xtremolo	*	*Xtremolo	*	*Xrep	*	*Xtremolo	*
=85:|!	=85:|!	=85:|!	=85:|!	=85:|!	=85:|!	=85:|!	=85:|!
!	!	!	!	!	!LO:DY:b	!	!LO:DY:b
8DD/L	.	8f\L	.	8a/L	f	8ddd\L	ff
8FF#X/	.	8f#X\	.	8dd 8f'</	.	8ddd 8ff#X 8d|>\	.
8AA/J	.	8a\J	.	8ddJ 8f'</	.	8dddJ 8ff# 8d|>\	.
!	!	!	!	!	!	!	!LO:DY:b
8D/	.	8dd\	.	8ddL 8f'</	.	(>8dddL 8ff#|>\	p
!	!	!	!	!	!LO:DY:b	!	!LO:HP:b:t=dim
8r	.	8r	.	(<8een/	p	8ccc#X\	>
8r	.	8r	.	8ff#X/J)	.	8cccn\J)	.
=86	=86	=86	=86	=86	=86	=86	=86
*k[f#]	*	*k[f#]	*	*k[f#]	*	*k[f#]	*
.	.	.	.	.	.	(>8qdd/	.
*	*	*	*	*Xtuplet	*	*	*
!	!	!	!LO:DY:b	!LO:TX:t=P:problem=mixed beam	!	!	!
(>8GG/L	.	(>4d\	p	24gg\LL	.	8bb\L)	.
.	.	.	.	24g/	.	.	.
.	.	.	.	24b/JJ	.	.	.
8GG/	.	.	.	24d/LL	.	16aa\L	.
.	.	.	.	24g/	.	.	.
.	.	.	.	.	.	16gg\	.
.	.	.	.	24b/JJ	.	.	.
8GG^</J)	.	8e^<\)	.	24e/LL	.	16ff#\	.
.	.	.	.	24g/	.	.	.
.	.	.	.	.	.	16ee\JJ	.
.	.	.	.	24cc/JJ	.	.	.
*tremolo	*	*	*	*	*	*	*
!LO:TX:a:t=P:problem=łuk nad nutą	!	!	!	!	!	!	!
(>8GG/L	.	8d\L	.	24d/LL	.	8dd\	.
.	.	.	.	24g/	.	.	.
.	.	.	.	24b/JJ	.	.	.
.	.	.	.	.	.	(<16qqff#/LL	.
.	.	.	.	.	.	16qqee/JJ	.
*	*	*	*	*rep	*	*	*
8GG/	.	8d'>\J	.	24d/LL	.	8dd\)	.
.	.	.	.	24g/	.	.	.
.	.	.	.	24b/JJ	.	.	.
*	*	*	*	*Xrep	*	*	*
*	*	*	*	*rep	*	*	*
8GG/J)	.	8r	.	24d/LL	.	8gg\	.
.	.	.	.	24g/	.	.	.
.	.	.	.	24b/JJ	.	.	.
*Xtremolo	*	*	*	*Xrep	*	*	*
=87	=87	=87	=87	=87	=87	=87	=87
.	.	.	.	.	.	(<8qgg#X/	.
8GG/L	.	(<4.c/	.	24e/LL	.	8.aa\L)	.
.	.	.	.	24a/	.	.	.
.	.	.	.	24cc/JJ	.	.	.
8GG'<^>/	.	.	.	24e-X^</LL	.	.	.
.	.	.	.	24a/	.	.	.
.	.	.	.	.	.	16bb\Jk	.
.	.	.	.	24cc/JJ	.	.	.
!	!	!	!	!	!	!LO:TUP:a:problem=klamra łukowa	!
[<8GG/J	.	.	.	24d/LL	.	40ccc\LLL	.
.	.	.	.	.	.	40ccc#X\	.
.	.	.	.	24a/	.	.	.
.	.	.	.	.	.	40ddd\	.
.	.	.	.	.	.	40eee\	.
.	.	.	.	24cc/JJ	.	.	.
.	.	.	.	.	.	40ddd\JJJ	.
8GG/L]	.	8B/L)	.	24d/LL	.	8ddd\	.
.	.	.	.	24g/	.	.	.
.	.	.	.	24b/JJ	.	.	.
*	*	*	*	*rep	*	*	*
8GG'</J	.	8B'</J	.	24d/LL	.	(>32ddd\LLL	.
!	!	!	!	!	!	!LO:TX:a:t=P:problem=♮ above	!
.	.	.	.	.	.	32cccn\	.
.	.	.	.	24g/	.	.	.
.	.	.	.	.	.	32bb\	.
.	.	.	.	24b/JJ	.	.	.
.	.	.	.	.	.	32aa\JJJ)	.
*	*	*	*	*Xrep	*	*	*
*	*	*	*	*rep	*	*	*
8r	.	8r	.	24d/LL	.	8gg#y\	.
.	.	.	.	24g/	.	.	.
.	.	.	.	24b/JJ	.	.	.
*	*	*	*	*Xrep	*	*	*
!!LO:LB:g=original
=88	=88	=88	=88	=88	=88	=88	=88
*	*	*	*	*	*	*8va	*
!	!	!	!	!	!	!	!LO:HP:b
8D#X\L	.	4.A/	.	24f#/LL	.	8bb\L	<
.	.	.	.	24a/	.	.	.
.	.	.	.	24b/JJ	.	.	.
*	*	*	*	*rep	*	*	*
8r	.	.	.	24f#/LL	.	16ccc#X\L	.
.	.	.	.	24a/	.	.	.
.	.	.	.	.	.	16ddd#X\	.
.	.	.	.	24b/JJ	.	.	.
*	*	*	*	*Xrep	*	*	*
*	*	*	*	*rep	*	*	*
!	!LO:HP:a	!	!	!	!	!	!
(>8D#\J	>	.	.	24f#/LL	.	16eee\	.
.	.	.	.	24a/	.	.	.
.	.	.	.	.	.	16fff#\JJ	[
.	.	.	.	24b/JJ	.	.	.
*	*	*	*	*Xrep	*	*	*
!	!	!	!	!	!	!	!LO:HP:b
8E\L)	]	8G/	.	24g\LL	.	16.ggg\LL	>
.	.	.	.	24b\	.	.	.
.	.	.	.	24ee\JJ	.	.	.
.	.	.	.	.	.	32fff#\JJk	]
*	*	*	*	*rep	*	*	*
8r	.	4g\	.	24g\LL	.	8eee|>\L	.
.	.	.	.	24b\	.	.	.
.	.	.	.	24ee\JJ	.	.	.
*	*	*	*	*Xrep	*	*X8va	*
*	*	*	*	*rep	*	*	*
(>8G\J	.	.	.	24g\LL	.	(>16.bb\L	.
.	.	.	.	24b\	.	.	.
.	.	.	.	24ee\JJ	.	.	.
.	.	.	.	.	.	32aa\JJk)	.
*	*	*	*	*Xrep	*	*	*
=89	=89	=89	=89	=89	=89	=89	=89
8A\L)	.	8f#L 8A/	.	24f#\LL	.	8ff#|>\L	.
.	.	.	.	24a\	.	.	.
.	.	.	.	24dd\JJ	.	.	.
*	*	*	*	*rep	*	*	*
!	!	!	!	!	!	!LO:TUP:a	!
8r	.	8r	.	24f#\LL	.	(>24ff#\L	.
.	.	.	.	24a\	.	24dd\	.
.	.	.	.	24dd\JJ	.	24ff#\JJ	.
*	*	*	*	*Xrep	*	*	*
*	*	*	*	*rep	*	*	*
!	!	!	!	!	!	!LO:TUP:a	!LO:HP:b
8A\J	.	(<8f#J 8A/	.	24f#\LL	.	24bb\LL	>
.	.	.	.	24a\	.	24aa\	.
.	.	.	.	24dd\JJ	.	24ff#\JJ)	]
*	*	*	*	*Xrep	*	*	*
8AA/L	.	8eL 8A/)	.	24g\LL	.	8ee|>\L	.
.	.	.	.	24a\	.	.	.
.	.	.	.	24cc#X\JJ	.	.	.
*	*	*	*	*rep	*	*	*
!	!	!	!	!	!	!LO:TUP:a	!
8r	.	8r	.	24g\LL	.	(>24ee\L	.
.	.	.	.	24a\	.	24cc#X\	.
.	.	.	.	24cc#X\JJ	.	24ee\JJ	.
*	*	*	*	*Xrep	*	*	*
*	*	*	*	*rep	*	*	*
!	!	!	!	!	!	!LO:TUP:a	!LO:HP:b
8AA/J	.	8eJ 8A/	.	24g\LL	.	24aa\LL	>
.	.	.	.	24a\	.	24gg\	.
.	.	.	.	24cc#X\JJ	.	24ee\JJ)	]
*	*	*	*	*Xrep	*	*	*
=90	=90	=90	=90	=90	=90	=90	=90
8D'>\L	.	8f# 8A/	.	8dd\	.	8dd\	.
(>8F#\	.	8r	.	8r	.	8r	.
8A\J	.	8r	.	8r	.	8r	.
.	.	.	.	.	.	(>8qdd/	.
*	*	*tremolo	*	*tremolo	*	*Xtuplet	*
!	!	!	!	!	!	!	!LO:DY:b
8D\L)	.	16a\LL	.	16ccnLL 16d/	.	24cccn\LL)	mf
.	.	.	.	.	.	24bb'>\	.
.	.	16a\	.	16cc 16d/	.	.	.
.	.	.	.	.	.	24aa'>\JJ	.
8D\	.	16a\	.	16cc 16d/	.	24aa'>\LL	.
.	.	.	.	.	.	24gg'>\	.
.	.	16a\	.	16cc 16d/	.	.	.
.	.	.	.	.	.	24ff#'>\JJ	.
8D\J	.	16a\	.	16cc 16d/	.	24ff#'>\LL	.
.	.	.	.	.	.	24ee'>\	.
.	.	16a\JJ	.	16ccJJ 16d/	.	.	.
.	.	.	.	.	.	24ff#'\JJ	.
=91	=91	=91	=91	=91	=91	=91	=91
8D'>\L	.	16g\LL	.	16bLL 16d/	.	(>24gg\LL	.
.	.	.	.	.	.	24bb\)	.
.	.	16g\	.	16b 16d/	.	.	.
.	.	.	.	.	.	24aa'>\JJ	.
(>8G\	.	16g\	.	16b 16d/	.	(>24gg\LL	.
.	.	.	.	.	.	24ddd\)	.
.	.	16g\	.	16b 16d/	.	.	.
.	.	.	.	.	.	24ccc'>\JJ	.
8B\J	.	16g\	.	16b 16d/	.	24bb'>\LL	.
.	.	.	.	.	.	24aa'>\	.
.	.	16g\JJ	.	16bJJ 16d/	.	.	.
.	.	.	.	.	.	24gg'>\JJ	.
!	!	!	!	!	!	!	!LO:HP:b
8D\L)	.	16g\LL	.	16b-XLL 16d/	.	24bb-X\LL	>
.	.	.	.	.	.	24aa\	.
.	.	16g\	.	16b- 16d/	.	.	.
.	.	.	.	.	.	24gg\JJ	.
8D'>\	.	16g\	.	16b- 16d/	.	24gg\LL	.
.	.	.	.	.	.	24ff#\	.
.	.	16g\	.	16b- 16d/	.	.	.
.	.	.	.	.	.	24ee\JJ	.
8D'>\J	.	16g\	.	16b- 16d/	.	24ee\LL	.
.	.	.	.	.	.	24dd\	]
.	.	16g\JJ	.	16b-JJ 16d/	.	.	.
.	.	.	.	.	.	24cc#X\JJ	.
!!LO:PB:g=original
=92	=92	=92	=92	=92	=92	=92	=92
8D'>\L	.	16f#\LL	.	16aLL 16d/	.	24dd\LL	.
.	.	.	.	.	.	24ff#\	.
.	.	16f#\	.	16a 16d/	.	.	.
.	.	.	.	.	.	24ee\JJ	.
(>8F#\	.	16f#\	.	16a 16d/	.	24dd\LL	.
.	.	.	.	.	.	24aa\	.
.	.	16f#\	.	16a 16d/	.	.	.
.	.	.	.	.	.	24gg\JJ	.
8A\J	.	16f#\	.	16a 16d/	.	24ff#\LL	.
.	.	.	.	.	.	24ee\	.
.	.	16f#\JJ	.	16aJJ 16d/	.	.	.
.	.	.	.	.	.	24dd\JJ	.
8D\L)	.	16a\LL	.	16ccLL 16d/	.	24ccc\LL	.
.	.	.	.	.	.	24bb\	.
.	.	16a\	.	16cc 16d/	.	.	.
.	.	.	.	.	.	24aa\JJ	.
8D'>\	.	16a\	.	16cc 16d/	.	24aa\LL	.
.	.	.	.	.	.	24gg\	.
.	.	16a\	.	16cc 16d/	.	.	.
.	.	.	.	.	.	24ff#\JJ	.
8D'>\J	.	16a\	.	16cc 16d/	.	24ff#\LL	.
.	.	.	.	.	.	24ee\	.
.	.	16a\JJ	.	16ccJJ 16d/	.	.	.
.	.	.	.	.	.	24ff#\JJ	.
=93	=93	=93	=93	=93	=93	=93	=93
8D'>\L	.	16g\LL	.	16bLL 16d/	.	24gg\LL	.
.	.	.	.	.	.	24bb\	.
.	.	16g\	.	16b 16d/	.	.	.
.	.	.	.	.	.	24aa\JJ	.
(>8G\	.	16g\	.	16b 16d/	.	24gg\LL	.
.	.	.	.	.	.	24ddd\	.
.	.	16g\	.	16b 16d/	.	.	.
.	.	.	.	.	.	24ccc\JJ	.
8B\J	.	16g\	.	16b 16d/	.	24bb\LL	.
.	.	.	.	.	.	24aa\	.
.	.	16g\JJ	.	16bJJ 16d/	.	.	.
.	.	.	.	.	.	24gg\JJ	.
!	!	!	!	!	!	!	!LO:HP:b
8D\L)	.	16g\LL	.	16b-XLL 16d/	.	24bb-X\LL	>
.	.	.	.	.	.	24aa\	.
.	.	16g\	.	16b- 16d/	.	.	.
.	.	.	.	.	.	24gg\JJ	.
8D'>\	.	16g\	.	16b- 16d/	.	24gg\LL	.
.	.	.	.	.	.	24ff#\	.
.	.	16g\	.	16b- 16d/	.	.	.
.	.	.	.	.	.	24ee\JJ	.
8D'>\J	.	16g\	.	16b- 16d/	.	24ee\LL	.
.	.	.	.	.	.	24dd\	.
.	.	16g\JJ	.	16b-JJ 16d/	.	.	.
.	.	.	.	.	.	24cc#X\JJ	]
=94	=94	=94	=94	=94	=94	=94	=94
8D'\L	.	16f#\LL	.	16aLL 16d/	.	24dd\LL	.
.	.	.	.	.	.	24ff#\	.
.	.	16f#\	.	16a 16d/	.	.	.
.	.	.	.	.	.	24ee\JJ	.
(>8F#\	.	16f#\	.	16a 16d/	.	24dd\LL	.
.	.	.	.	.	.	24aa\	.
.	.	16f#\	.	16aJJ 16d/	.	.	.
.	.	.	.	.	.	24gg\JJ	.
*	*	*	*	*Xtremolo	*	*	*
8A\J	.	16f#\	.	16ccLL 16d/	.	24ff#\LL	.
.	.	.	.	.	.	24ee\	.
.	.	16f#\JJ	.	16ccJJ 16d/	.	.	.
.	.	.	.	.	.	24dd\JJ	.
*	*	*	*	*tremolo	*	*	*
!	!	!	!	!	!	!	!LO:HP:b
8D\L)	.	16g\LL	.	16b-XLL 16d/	.	24bb-X\LL	>
.	.	.	.	.	.	24aa\	.
.	.	16g\	.	16b- 16d/	.	.	.
.	.	.	.	.	.	24gg\JJ	.
8D\	.	16g\	.	16b- 16d/	.	24gg\LL	.
.	.	.	.	.	.	24ff#\	.
.	.	16g\	.	16b- 16d/	.	.	.
.	.	.	.	.	.	24ee\JJ	.
8D\J	.	16g\	.	16b- 16d/	.	24ee\LL	.
.	.	.	.	.	.	24dd\	.
.	.	16g\JJ	.	16b-JJ 16d/	.	.	.
.	.	.	.	.	.	24cc#X\JJ	]
=95	=95	=95	=95	=95	=95	=95	=95
8D'>\L	.	16f#\LL	.	16aLL 16d/	.	24dd\LL	.
.	.	.	.	.	.	24ff#\	.
.	.	16f#\	.	16a 16d/	.	.	.
.	.	.	.	.	.	24ee\JJ	.
(>8F#\	.	16f#\	.	16a 16d/	.	24dd\LL	.
.	.	.	.	.	.	24aa\	.
.	.	16f#\	.	16aJJ 16d/	.	.	.
.	.	.	.	.	.	24gg\JJ	.
*	*	*	*	*Xtremolo	*	*	*
8A\J	.	16f#\	.	16ccLL 16d/	.	24ff#\LL	.
.	.	.	.	.	.	24ee\	.
.	.	16f#\JJ	.	16ccJJ 16d/	.	.	.
.	.	.	.	.	.	24dd\JJ	.
*	*	*	*	*tremolo	*	*	*
8D\L)	.	16g\LL	.	16b-XLL 16d/	.	24bb-X\LL	.
!	!	!	!	!	!	!	!LO:HP:b
.	.	.	.	.	.	24aa\	>
.	.	16g\	.	16b- 16d/	.	.	.
.	.	.	.	.	.	24gg\JJ	.
8D\	.	16g\	.	16b- 16d/	.	24gg\LL	.
.	.	.	.	.	.	24ff#\	.
.	.	16g\	.	16b- 16d/	.	.	.
.	.	.	.	.	.	24ee\JJ	.
8D\J	.	16g\	.	16b- 16d/	.	24ee\LL	.
.	.	.	.	.	.	24dd\	.
.	.	16g\JJ	.	16b-JJ 16d/	.	.	.
.	.	.	.	.	.	24cc#X\JJ	]
!!LO:LB:g=original
=96	=96	=96	=96	=96	=96	=96	=96
8D'>\L	.	16f#\LL	.	16aLL 16d/	.	24dd\LL	.
.	.	.	.	.	.	24ff#\	.
.	.	16f#\	.	16a 16d/	.	.	.
.	.	.	.	.	.	24ee\JJ	.
(>8D\	.	16f#\	.	16a 16d/	.	24dd\LL	.
.	.	.	.	.	.	24ff#\	.
.	.	16f#\JJ	.	16aJJ 16d/	.	.	.
.	.	.	.	.	.	24aa\JJ	.
*	*	*Xtremolo	*	*Xtremolo	*	*	*
!	!	!	!	!	!	!LO:TX:b:t=P:problem=diminuendolike accent	!
8C#X^>\J	.	16gLL 16e^>\	.	16b-X^>/LL	.	24bb-X^<\LL	.
.	.	.	.	.	.	24aa\	.
.	.	16gJJ 16e\	.	16b-/JJ	.	.	.
.	.	.	.	.	.	24gg\JJ	.
*	*	*tremolo	*	*tremolo	*	*	*
!LO:TX:t=P:problem=mixed beam	!	!	!	!	!	!	!
8D\L)	.	16f#\LL	.	16a/LL	.	24ff#\LL	.
.	.	.	.	.	.	24dd\	.
.	.	16f#\	.	16a/	.	.	.
.	.	.	.	.	.	24ee\JJ	.
(<8DD/	.	16f#\	.	16a/	.	24ff#\LL	.
.	.	.	.	.	.	24gg\	.
.	.	16f#\JJ	.	16a/JJ	.	.	.
.	.	.	.	.	.	24aa\JJ	.
*	*	*Xtremolo	*	*Xtremolo	*	*	*
!	!	!	!	!	!	!LO:TX:b:t=P:problem=diminuendolike accent	!
8CC#X^>/J	.	16gLL 16e^>\	.	16b-^>/LL	.	24bb-X^<\LL	.
.	.	.	.	.	.	24aa\	.
.	.	16gJJ 16e\	.	16b-/JJ	.	.	.
.	.	.	.	.	.	24gg\JJ	.
=97	=97	=97	=97	=97	=97	=97	=97
*	*	*tremolo	*	*tremolo	*	*	*
!LO:TX:t=P:problem=mixed beam	!	!	!	!	!	!	!
8DD/L)	.	16f#\LL	.	16a/LL	.	24ff#\LL	.
.	.	.	.	.	.	24dd\	.
.	.	16f#\	.	16a/	.	.	.
.	.	.	.	.	.	24ee\JJ	.
(>8D\	.	16f#\	.	16a/	.	24ff#\LL	.
.	.	.	.	.	.	24gg\	.
.	.	16f#\JJ	.	16a/JJ	.	.	.
.	.	.	.	.	.	24aa\JJ	.
*	*	*Xtremolo	*	*Xtremolo	*	*	*
!	!	!	!	!	!	!LO:TX:b:t=P:problem=diminuendolike accent	!
8C#X^>\J	.	16gLL 16e^>\	.	16b-X/LL	.	24bb-X^<\LL	.
.	.	.	.	.	.	24aa\	.
.	.	16gJJ 16e\	.	16b-/JJ	.	.	.
.	.	.	.	.	.	24gg\JJ	.
*	*	*tremolo	*	*tremolo	*	*	*
!LO:TX:t=P:problem=mixed beam	!	!	!	!	!	!	!
8D\L)	.	16f#\LL	.	16a/LL	.	24ff#\LL	.
.	.	.	.	.	.	24dd\	.
.	.	16f#\	.	16a/	.	.	.
.	.	.	.	.	.	24ee\JJ	.
(<8DD/	.	16f#\	.	16a/	.	24ff#\LL	.
.	.	.	.	.	.	24gg\	.
.	.	16f#\JJ	.	16a/JJ	.	.	.
.	.	.	.	.	.	24aa\JJ	.
*	*	*Xtremolo	*	*Xtremolo	*	*	*
!	!	!	!	!	!	!LO:TX:b:t=P:problem=diminuendolike accent	!
8CC#X^>/J	.	16gLL 16e^>\	.	16b-/LL	.	24bb-^<\LL	.
.	.	.	.	.	.	24aa\	.
.	.	16gJJ 16e\	.	16b-/JJ	.	.	.
.	.	.	.	.	.	24gg\JJ	.
=98	=98	=98	=98	=98	=98	=98	=98
8DD/)	.	8f#\	.	8a/	.	8ff#\L	.
!	!	!	!	!	!	!	!LO:HP:b:t=dimi
8r	.	8r	.	8r	.	(>8ee\	>
8r	.	8r	.	8r	.	8ee-X\J	.
4r	.	4r	.	(<8d/L	.	8dd\L	.
.	.	.	.	8e/	.	8cc#X\	.
8r	.	8r	.	8f#/J	.	8ccn\J	.
=99	=99	=99	=99	=99	=99	=99	=99
*tremolo	*	*	*	*	*	*	*
!LO:TX:a:t=P:łuk:problem	!LO:DY:a:rj	!	!	!	!	!	!LO:DY:b:rj
(<8GG/L	p	(>8d\L	.	8g/)	.	()8b/L	p
8GG/	.	8e\	.	8r	.	8cc/	.
8GG/	.	8d\J	.	8r	.	8b/J	.
8GG/	.	8c#X\L	.	4r	.	8a/L	.
8GG/	.	16cn\L	.	.	.	8e/	.
.	.	16B\	.	.	.	.	.
8GG/J)	.	16A\	.	8r	.	8f#/J	.
.	.	16d\JJ)	.	.	.	.	.
*Xtremolo	*	*	*	*	*	*	*
=100	=100	=100	=100	=100	=100	=100	=100
(<16GG/LL	.	8B/L	.	4r	.	8g/L)	.
16BB/J)	.	.	.	.	.	.	.
8D'</	.	8B/	.	.	.	8g'</	.
*	*	*tuplet	*	*	*	*tuplet	*
!	!	!LO:TUP:b:problem=klamra łukowa	!	!	!	!LO:TUP:b:problem=klamra łukowa	!
(>8F#X/J	.	24c/L	.	8r	.	24a/L	.
.	.	24d/	.	.	.	24b/	.
.	.	24c/JJ	.	.	.	24a/JJ	.
!LO:TX:t=P:problem=mixed beam	!	!	!	!	!	!	!
8G\L)	.	8B/	.	4r	.	8g/	.
8GG/J	.	8r	.	.	.	8r	.
8r	.	8r	.	(<8b/	.	8r	.
!!LO:LB:g=original
=101	=101	=101	=101	=101	=101	=101	=101
!LO:TX:t=P:problem=mixed beam	!	!	!	!	!	!	!
8FF#'</L	.	8dL 8c'>\	.	8a/L)	.	2.r	.
8F#'>\J	.	8dJ 8c'>\	.	8d'</J	.	.	.
*	*	*	*	*tuplet	*	*	*
!	!	!	!	!LO:TUP:b:problem=klamra łukowa	!	!	!
8r	.	8r	.	24cc/LL	.	.	.
.	.	.	.	24b/	.	.	.
.	.	.	.	24a/JJ	.	.	.
!LO:TX:t=P:problem=mixed beam	!	!	!	!	!	!	!
8GG'</L	.	8dL 8B'>\	.	8b/L	.	.	.
8G'>\J	.	8dJ 8B'>\	.	8d/J	.	.	.
!	!	!	!	!LO:TUP:b:problem=klamra łukowa	!	!	!
8r	.	8r	.	24dd/LL	.	.	.
.	.	.	.	24cc/	.	.	.
.	.	.	.	24b/JJ	.	.	.
=102	=102	=102	=102	=102	=102	=102	=102
8DD'</L	.	8d\L	.	8a/L	.	8ff#\	.
(<8FF#/	.	8d\	.	8a/J	.	(>8aa\L	.
!	!	!	!	!LO:TUP:b:problem=klamra łukowa	!	!	!
8GG/J	.	8d\J	.	24b/LL	.	8gg\J	.
.	.	.	.	24cc/	.	.	.
.	.	.	.	24b/JJ	.	.	.
8D/)	.	8d\	.	8a/	.	8ff#\L)	.
8r	.	8d'>\L	.	8r	.	8dd\	.
8r	.	(>16e\L	.	8r	.	(>16cc#X\L	.
.	.	16f#\JJ	.	.	.	16ccn\JJ	.
=103	=103	=103	=103	=103	=103	=103	=103
*tremolo	*	*	*	*	*	*	*
!LO:TX:a:t=P:łuk:problem	!	!	!	!	!	!	!
(<8GG/L	.	16g\LL)	.	2.r	.	8b/L)	.
.	.	16d\	.	.	.	.	.
8GG/	.	16e\	.	.	.	8cc/	.
.	.	(>16e-X\J	.	.	.	.	.
8GG/	.	8d\J	.	.	.	8b/J	.
8GG/	.	8c#X/L	.	.	.	16b/LL	.
.	.	.	.	.	.	16a/J	.
8GG/	.	16cn/L	.	.	.	8e/	.
.	.	16B/	.	.	.	.	.
8GG/J)	.	16A/	.	.	.	8f#/J	.
.	.	16d/JJ)	.	.	.	.	.
*Xtremolo	*	*	*	*	*	*	*
=104	=104	=104	=104	=104	=104	=104	=104
(<16GG/LL	.	8B'</L	.	4r	.	8g/L	.
16BB/J)	.	.	.	.	.	.	.
8D'</	.	8B'</	.	.	.	8g/	.
!	!	!LO:TUP:b:problem=klamra łukowa	!	!	!	!LO:TUP:b:problem=klamra łukowa	!
(<8F#/J	.	24c/L	.	8r	.	24a/L	.
.	.	24d/	.	.	.	24b/	.
.	.	24c/JJ	.	.	.	24a/JJ	.
!LO:TX:t=P:problem=mixed beam	!	!	!	!	!	!	!
8G\L)	.	8B/	.	4r	.	8g/	.
8GG'</J	.	8r	.	.	.	8r	.
8r	.	8r	.	(<8b/	.	8r	.
=105	=105	=105	=105	=105	=105	=105	=105
!LO:TX:t=P:problem=mixed beam	!	!	!	!	!	!	!
8A\L	.	8f#L 8A\	.	8a/L)	.	8d/L	.
8AA/J	.	8f#J 8A\	.	8a'</J	.	8d/J	.
!	!	!	!	!LO:TUP:a:problem=klamra łukowa	!	!	!
8r	.	8r	.	24ff#\LL	.	8r	.
.	.	.	.	24ee\	.	.	.
.	.	.	.	24dd\JJ	.	.	.
!LO:TX:t=P:problem=mixed beam	!	!	!	!	!	!	!
8A\L	.	8gL 8A\	.	8cc#X'>\L	.	8e/L	.
8AA/J	.	8gJ 8A\	.	8cc#'>\J	.	8e/J	.
*	*	*	*	*Xtuplet	*	*	*
!	!	!	!	!LO:TUP:a:problem=klamra łukowa	!	!	!
8r	.	8r	.	24gg\LL	.	8r	.
.	.	.	.	24ff#\	.	.	.
.	.	.	.	24ee\JJ	.	.	.
!!LO:PB:g=original
=106	=106	=106	=106	=106	=106	=106	=106
8D/	.	8f#L 8A'>\	.	8dd\L	.	8d'</	.
8r	.	(>8f# 8A\	.	8dd\	.	(>8dd\L	.
!	!	!	!	!LO:TUP:a:problem=klamra łukowa	!	!	!
(<8AA/	.	8gJ 8A\	.	24ee\L	.	8cc#X\J	.
.	.	.	.	24ff#\	.	.	.
.	.	.	.	24ee\JJ	.	.	.
8D/L)	.	8f# 8A\)	.	8dd\	.	8dd\)	.
8DD/J	.	8r	.	8r	.	8r	.
!	!	!	!	!	!	!	!LO:DY:b:rj
8r	.	8r	.	8r	.	8dd\	p
=107	=107	=107	=107	=107	=107	=107	=107
*tremolo	*	*	*	*	*	*	*
!LO:TX:a:t=P:łuk:problem	!	!	!	!	!	!	!LO:HP:b
(>8G\L	.	(>8dd\L	.	2.r	.	(>8bb\L	<
!	!	!	!LO:HP:b	!	!	!	!
8G\	.	16ee\L	<	.	.	8ccc\	.
!	!	!	!LO:HP:b	!	!	!	!
.	.	16ee-X\J	[ >	.	.	.	.
!	!	!	!	!	!	!	!LO:HP:b
8G\	.	8dd\J)	]	.	.	8bb\J	[ >
8G\	.	8cc#X\L	.	.	.	16bb\LL	.
.	.	.	.	.	.	16aa\J	.
8G\	.	(>16ccn\L	.	.	.	8ee\	]
.	.	16b\	.	.	.	.	.
8G\J)	.	16a\	.	.	.	8ff#\J)	.
.	.	16dd\JJ)	.	.	.	.	.
*Xtremolo	*	*	*	*	*	*	*
=108	=108	=108	=108	=108	=108	=108	=108
(>16G\LL	.	8b\L	.	2.r	.	8gg'>\L	.
16B\J)	.	.	.	.	.	.	.
8d'>\	.	8b'>\J	.	.	.	8gg'>\	.
*	*	*Xtuplet	*	*	*	*	*
!	!	!	!	!	!	!LO:TUP:a:problem=klamra łukowa	!LO:HP:b
(>8f#\J	.	(>24cc\LL	.	.	.	24aa\L	<
!	!	!	!	!	!	!	!LO:HP:b
.	.	24dd\	.	.	.	24bb\	[ >
.	.	24cc\JJ	.	.	.	24aa\JJ	]
8g\L)	.	8b\L)	.	.	.	8gg'>\L	.
8G\J	.	8b'>\J	.	.	.	8gg'>\J	.
!	!	!	!	!	!	!	!LO:HP:b
!	!	!	!	!	!	!	!LO:DY:b:rj
8r	.	8r	.	.	.	(>8bb\	mf >
=109	=109	=109	=109	=109	=109	=109	=109
8Cn'</L	.	8a\L	.	8eeL 8a'>\	.	8aa\L)	]
8C'</J	.	8a\J	.	8eeJ 8a'>\	.	8aa'>\J	.
!	!	!	!	!	!	!LO:TUP:a:problem=klamra łukowa	!
8r	.	8r	.	8r	.	24eee\LL	.
.	.	.	.	.	.	24ddd#X\	.
.	.	.	.	.	.	24eee\JJ	.
!	!	!	!	!	!	!	!LO:DY:b:rj
8C#X'<^>/L	.	8g\L	.	8eeL 8b-X'>^<\	.	8ggg'>^<\L	ff
8C#'<^>/J	.	8g\J	.	8eeJ 8b-'>^<\	.	8ggg'>^<\J	.
!	!	!	!	!	!	!LO:TUP:a:problem=klamra łukowa	!
8r	.	8r	.	8r	.	24ggg\LL	.
.	.	.	.	.	.	24fff#\	.
.	.	.	.	.	.	24ggg\JJ	.
=110	=110	=110	=110	=110	=110	=110	=110
8D/L	.	8g\L	.	(>8bn\L	.	(>8ddd\L	.
8D/J	.	8g\J	.	8dd\J)	.	8bb\J)	.
8r	.	8r	.	8r	.	8r	.
4r	.	4r	.	4r	.	8r	.
.	.	.	.	.	.	8r	.
!	!	!	!	!	!	!LO:TUP:a:problem=klamra łukowa	!LO:DY:b:rj
8r	.	8r	.	8r	.	24ddd\LL	p
.	.	.	.	.	.	24eee\	.
.	.	.	.	.	.	24ddd\JJ	.
!!LO:LB:g=original
=111	=111	=111	=111	=111	=111	=111	=111
8d\L	.	8a\L	.	8ff#L 8dd\	.	8aa'>\L	.
8d\J	.	8a\J	.	8ff#J 8dd\	.	8aa'>\J	.
8r	.	8r	.	8r	.	8r	.
4r	.	4r	.	4r	.	4r	.
!	!	!	!	!	!	!LO:TUP:a:problem=klamra łukowa	!
8r	.	8r	.	8r	.	24ddd\LL	.
.	.	.	.	.	.	24eee\	.
.	.	.	.	.	.	24ddd\JJ	.
=112	=112	=112	=112	=112	=112	=112	=112
8g\L	.	8b\L	.	8ggL 8dd\	.	8gg'>\L	.
8g\J	.	8b\J	.	8ggJ 8dd\	.	8gg'>\J	.
8r	.	8r	.	8r	.	8r	.
4r	.	4r	.	4r	.	4r	.
*tuplet	*	*	*	*	*	*	*
!LO:TUP:b:problem=klamra łukowa	!LO:DY:a	!	!	!	!	!	!
24D/LL	pp	8r	.	8r	.	8r	.
24E/	.	.	.	.	.	.	.
24D/JJ	.	.	.	.	.	.	.
=113	=113	=113	=113	=113	=113	=113	=113
!	!	!	!	!LO:TX:a:t=P:problem=korekty w t. 113-114	!LO:DY:a:rj	!	!
8FF#/L	.	8dL 8c\	.	8a/L	pp	2.r	.
8FF#/J	.	8dJ 8c\	.	8a/J	.	.	.
8r	.	8r	.	8r	.	.	.
8r	.	4r	.	4r	.	.	.
8r	.	.	.	.	.	.	.
!LO:TUP:b:problem=klamra łukowa	!	!	!	!	!	!	!
24D/LL	.	8r	.	8r	.	.	.
24E/	.	.	.	.	.	.	.
24D/JJ	.	.	.	.	.	.	.
=114	=114	=114	=114	=114	=114	=114	=114
8GG/L	.	8dL 8B\	.	8g/L	.	4r	.
8GG/J	.	8dJ 8B\	.	8g/J	.	.	.
8r	.	8r	.	8r	.	8r	.
4r	.	4r	.	8r	.	8r	.
.	.	.	.	8r	.	8r	.
*	*	*	*	*tuplet	*	*	*
!	!LO:DY:b	!	!	!LO:TUP:b:problem=klamra łukowa	!LO:DY:b:rj	!LO:TUP:a:problem=klamra łukowa	!LO:DY:b:rj
8r	ff	8r	.	24d/LL	ff	24dd\LL	ff
.	.	.	.	24e/	.	24ee\	.
.	.	.	.	24d/JJ	.	24dd\JJ	.
=115	=115	=115	=115	=115	=115	=115	=115
!	!	!	!LO:DY:b:rj	!	!	!	!
8D'>\L	.	8d'>\L	ff	4cc 4d/	.	4ff# 4a 4d\	.
(>8d\	.	(>8dd\	.	.	.	.	.
8c#X\J	.	8cc#X\J	.	8r	.	8r	.
8cn\L	.	8ccn\L	.	4cc 4d/	.	4ff# 4a 4d\	.
8B\	.	8b\	.	.	.	.	.
8A\J)	.	8a\J)	.	8r	.	8r	.
=116	=116	=116	=116	=116	=116	=116	=116
!LO:TX:t=P:problem=mixed beam	!	!LO:TX:t=P:problem=mixed beam	!	!	!	!	!
8G\L	.	8g\L	.	4b 4d/	.	4ff# 4b 4d\	.
8GG'>/J	.	8G/J	.	.	.	.	.
8r	.	8r	.	8r	.	8r	.
4r	.	4r	.	4r	.	4r	.
8ryy	.	8r	.	8r	.	8r	.
==	==	==	==	==	==	==	==
*-	*-	*-	*-	*-	*-	*-	*-
!!!system-decoration: [(s1,s2,s3,s4)]
!!!RDF**kern: | = vertical stroke
!!!RDF**kern: > = above
!!!RDF**kern: < = below
!!!EED: Antoni Szymański
!!!EEV: 2021-07-10
!!!ENC: Marcin Jachim
!!!END: 2021-06-21
!!!YEC: Copyright 2022 Narodowy Instytut Fryderyka Chopina (https://polishscores.org)
!!!YEM: Licence CC BY 4.0 (https://creativecommons.org/licenses/by/4.0)
